static/luts/CRAZY.3DL
#Created by: Adobe Photoshop Export Color Lookup Plugin
#Description: Globe_Lut_Test_2.psd
0 33 66 99 132 165 198 231 264 297 330 363 396 429 462 495 528 561 594 627 660 693 726 759 792 825 858 891 924 957 990 1023
4030 4 3983
3964 1186 3784
3841 2089 3468
3603 2867 3055
3192 3518 2570
2592 3960 2135
1953 4092 2012
1882 4062 2049
1768 4019 2113
1608 3964 2197
1396 3896 2298
1109 3818 2409
669 3731 2526
0 3635 2646
0 3530 2766
0 3419 2883
0 3287 2997
0 3146 3105
0 3000 3208
0 2848 3306
0 2690 3399
0 2531 3485
0 2368 3565
0 2201 3640
0 2033 3708
0 1864 3771
0 1694 3828
0 1527 3879
0 1359 3924
0 1196 3963
0 1039 3996
0 897 4023
3951 1326 3746
3968 1133 3799
3868 1948 3528
3650 2752 3126
3269 3429 2647
2696 3909 2190
1983 4091 2009
1896 4068 2040
1790 4026 2101
1636 3973 2183
1433 3908 2282
1160 3831 2391
764 3746 2507
0 3652 2626
0 3548 2746
0 3437 2865
0 3307 2979
0 3168 3088
0 3025 3192
0 2873 3291
0 2717 3384
0 2557 3471
0 2393 3553
0 2227 3628
0 2061 3697
0 1892 3761
0 1722 3819
0 1553 3871
0 1385 3917
0 1221 3957
0 1065 3991
0 920 4019
3783 2337 3352
3776 2363 3339
3859 1995 3508
3697 2626 3199
3346 3327 2730
2804 3846 2256
2082 4076 2007
1910 4073 2033
1810 4034 2089
1665 3982 2167
1471 3919 2264
1212 3845 2373
840 3760 2488
0 3667 2608
0 3565 2728
0 3457 2845
0 3330 2960
0 3192 3070
0 3048 3176
0 2897 3275
0 2742 3370
0 2583 3457
0 2421 3540
0 2255 3616
0 2087 3687
0 1918 3752
0 1749 3810
0 1581 3863
0 1413 3910
0 1248 3951
0 1088 3986
0 941 4015
3439 3184 2839
3321 3362 2703
3503 3071 2920
3647 2761 3121
3412 3227 2806
2901 3781 2324
2204 4054 2005
1923 4079 2027
1829 4041 2079
1691 3991 2154
1504 3930 2249
1258 3857 2355
916 3775 2469
224 3683 2587
0 3583 2708
0 3474 2827
0 3351 2942
0 3214 3053
0 3072 3158
0 2922 3259
0 2768 3354
0 2609 3444
0 2446 3528
0 2281 3605
0 2116 3676
0 1947 3741
0 1777 3801
0 1607 3855
0 1438 3903
0 1274 3944
0 1114 3981
0 964 4010
2854 3815 2289
2503 3991 2092
2804 3846 2256
3069 3643 2457
3290 3402 2669
3000 3704 2400
2324 4031 2024
1933 4083 2021
1846 4048 2069
1717 4001 2140
1539 3941 2231
1304 3870 2337
978 3789 2451
402 3698 2569
0 3600 2688
0 3493 2807
0 3373 2924
0 3238 3035
0 3095 3142
0 2946 3244
0 2792 3340
0 2636 3430
0 2474 3514
0 2309 3592
0 2141 3665
0 1973 3732
0 1803 3792
0 1635 3846
0 1467 3895
0 1300 3939
0 1138 3975
0 986 4006
2030 4084 2008
1923 4079 2027
1950 4091 2013
2121 4069 2006
2451 4003 2069
2761 3873 2229
2400 4015 2049
1944 4088 2017
1865 4054 2059
1741 4009 2128
1571 3951 2216
1349 3882 2319
1042 3803 2431
549 3713 2549
0 3616 2669
0 3510 2789
0 3393 2906
0 3261 3017
0 3119 3125
0 2971 3227
0 2818 3325
0 2660 3416
0 2499 3501
0 2334 3581
0 2169 3653
0 2001 3721
0 1831 3782
0 1661 3838
0 1493 3888
0 1327 3932
0 1164 3970
0 1011 4002
1892 4065 2044
1798 4029 2095
1835 4044 2075
1882 4062 2049
1918 4076 2030
1946 4089 2015
2074 4077 2007
1943 4087 2017
1880 4061 2050
1765 4017 2115
1603 3961 2201
1387 3894 2302
1098 3816 2413
650 3728 2531
0 3633 2649
0 3528 2769
0 3415 2887
0 3282 3000
0 3141 3108
0 2995 3212
0 2844 3308
0 2687 3401
0 2526 3488
0 2362 3568
0 2195 3642
0 2027 3711
0 1860 3772
0 1690 3829
0 1521 3880
0 1353 3925
0 1190 3964
0 1034 3997
1761 4017 2116
1622 3968 2190
1635 3972 2184
1709 3998 2145
1773 4020 2109
1828 4041 2079
1874 4059 2053
1914 4074 2032
1869 4056 2056
1785 4025 2103
1631 3971 2186
1428 3906 2284
1153 3829 2394
743 3743 2511
0 3648 2630
0 3545 2750
0 3434 2869
0 3305 2982
0 3165 3091
0 3019 3195
0 2868 3294
0 2711 3387
0 2551 3474
0 2390 3555
0 2224 3630
0 2056 3700
0 1887 3763
0 1716 3821
0 1547 3873
0 1381 3918
0 1217 3958
0 1060 3992
1569 3950 2217
1376 3890 2307
1334 3878 2325
1444 3911 2277
1539 3941 2231
1622 3968 2190
1697 3994 2150
1765 4017 2115
1820 4038 2084
1754 4014 2119
1660 3980 2171
1463 3917 2268
1201 3842 2377
829 3758 2491
0 3665 2610
0 3563 2730
0 3453 2850
0 3325 2964
0 3187 3074
0 3043 3179
0 2894 3277
0 2738 3372
0 2579 3460
0 2415 3542
0 2249 3618
0 2082 3689
0 1915 3753
0 1745 3812
0 1575 3864
0 1407 3911
0 1242 3952
0 1083 3987
1304 3870 2337
1029 3800 2435
869 3765 2482
1042 3803 2431
1192 3839 2380
1320 3874 2331
1428 3906 2284
1527 3936 2239
1612 3964 2196
1688 3990 2156
1601 3960 2201
1497 3927 2252
1251 3855 2358
901 3772 2473
163 3680 2591
0 3579 2712
0 3470 2831
0 3348 2945
0 3212 3056
0 3067 3162
0 2918 3263
0 2762 3357
0 2605 3446
0 2443 3529
0 2277 3606
0 2110 3678
0 1941 3743
0 1771 3803
0 1603 3856
0 1435 3904
0 1269 3946
0 1109 3981
920 3776 2467
398 3697 2570
0 3634 2648
102 3676 2596
585 3719 2542
836 3760 2490
1019 3797 2439
1171 3834 2388
1300 3869 2338
1412 3901 2291
1513 3931 2245
1396 3896 2298
1262 3859 2353
970 3786 2453
386 3696 2571
0 3596 2692
0 3489 2811
0 3369 2928
0 3233 3039
0 3092 3144
0 2943 3246
0 2789 3342
0 2630 3432
0 2468 3517
0 2303 3595
0 2138 3667
0 1969 3733
0 1799 3793
0 1630 3848
0 1461 3897
0 1295 3940
0 1135 3976
0 3669 2605
0 3583 2708
0 3489 2811
0 3535 2761
0 3581 2709
0 3627 2656
0 3670 2604
539 3713 2550
805 3753 2498
991 3791 2447
1149 3828 2395
1283 3864 2345
1128 3823 2403
936 3780 2462
518 3710 2553
0 3612 2673
0 3507 2792
0 3390 2908
0 3256 3021
0 3114 3128
0 2966 3230
0 2813 3327
0 2657 3417
0 2495 3503
0 2331 3583
0 2164 3655
0 1995 3723
0 1826 3785
0 1658 3840
0 1489 3889
0 1322 3933
0 1160 3971
0 3552 2743
0 3457 2845
0 3348 2945
0 3373 2924
0 3429 2874
0 3479 2822
0 3528 2769
0 3575 2717
0 3620 2664
0 3664 2612
486 3706 2558
769 3747 2505
966 3786 2454
737 3741 2513
358 3693 2574
0 3629 2653
0 3525 2773
0 3411 2891
0 3278 3004
0 3138 3111
0 2991 3214
0 2839 3312
0 2681 3404
0 2521 3490
0 2357 3570
0 2192 3643
0 2024 3712
0 1854 3774
0 1684 3831
0 1515 3882
0 1348 3927
0 1187 3965
0 3425 2878
0 3310 2976
0 3191 3071
0 3183 3078
0 3243 3030
0 3305 2982
0 3364 2931
0 3421 2882
0 3472 2829
0 3521 2777
0 3568 2725
0 3613 2672
0 3658 2618
432 3700 2567
0 3652 2626
0 3600 2688
0 3543 2753
0 3432 2872
0 3300 2985
0 3161 3094
0 3015 3198
0 2863 3297
0 2708 3389
0 2548 3476
0 2384 3558
0 2218 3632
0 2050 3702
0 1881 3765
0 1713 3822
0 1543 3874
0 1375 3919
0 1212 3959
0 3273 3007
0 3149 3102
0 3025 3192
0 2980 3222
0 3046 3177
0 3109 3132
0 3173 3084
0 3236 3037
0 3296 2989
0 3355 2939
0 3412 2890
0 3464 2838
0 3514 2785
0 3560 2733
0 3607 2680
0 3554 2741
0 3499 2801
0 3442 2861
0 3321 2968
0 3184 3076
0 3039 3181
0 2888 3281
0 2733 3375
0 2573 3463
0 2410 3545
0 2246 3620
0 2078 3690
0 1909 3755
0 1739 3813
0 1570 3866
0 1401 3912
0 1238 3953
0 3109 3132
0 2981 3221
0 2849 3305
0 2766 3355
0 2836 3314
0 2902 3272
0 2970 3229
0 3036 3184
0 3100 3139
0 3164 3092
0 3227 3044
0 3287 2997
0 3347 2947
0 3405 2896
0 3457 2845
0 3507 2793
0 3449 2854
0 3387 2911
0 3320 2969
0 3206 3059
0 3063 3165
0 2914 3265
0 2759 3360
0 2600 3449
0 2437 3532
0 2272 3609
0 2104 3680
0 1935 3746
0 1768 3804
0 1598 3858
0 1429 3905
0 1264 3947
0 2940 3249
0 2806 3332
0 2669 3411
0 2544 3478
0 2616 3440
0 2685 3402
0 2755 3362
0 2825 3320
0 2892 3279
0 2960 3235
0 3026 3190
0 3090 3146
0 3154 3098
0 3217 3051
0 3278 3004
0 3338 2954
0 3395 2905
0 3329 2962
0 3259 3018
0 3189 3072
0 3087 3148
0 2938 3249
0 2783 3345
0 2625 3435
0 2465 3519
0 2299 3596
0 2132 3668
0 1963 3735
0 1794 3795
0 1624 3850
0 1458 3898
0 1291 3941
0 2761 3358
0 2623 3437
0 2485 3508
0 2342 3577
0 2390 3555
0 2463 3519
0 2534 3484
0 2605 3446
0 2675 3408
0 2745 3368
0 2815 3327
0 2882 3285
0 2949 3242
0 3016 3197
0 3080 3153
0 3145 3106
0 3208 3058
0 3269 3011
0 3199 3066
0 3126 3120
0 3051 3173
0 2963 3233
0 2809 3330
0 2652 3421
0 2490 3506
0 2325 3585
0 2158 3658
0 1992 3724
0 1822 3785
0 1652 3841
0 1483 3891
0 1317 3934
0 2579 3460
0 2437 3532
0 2294 3599
0 2149 3662
0 2158 3658
0 2233 3626
0 2305 3594
0 2379 3560
0 2452 3525
0 2522 3489
0 2594 3452
0 2666 3413
0 2735 3374
0 2804 3333
0 2873 3291
0 2940 3249
0 3006 3204
0 3070 3160
0 3135 3113
0 3063 3165
0 2986 3217
0 2909 3268
0 2832 3316
0 2676 3406
0 2517 3492
0 2353 3572
0 2186 3646
0 2018 3715
0 1849 3777
0 1679 3832
0 1512 3883
0 1344 3927
0 2391 3554
0 2248 3620
0 2102 3681
0 1956 3738
0 1924 3750
0 1999 3721
0 2072 3693
0 2147 3663
0 2222 3631
0 2294 3599
0 2368 3565
0 2441 3530
0 2512 3495
0 2583 3457
0 2655 3419
0 2724 3380
0 2794 3339
0 2863 3297
0 2929 3255
0 2997 3210
0 2919 3261
0 2842 3309
0 2762 3357
0 2681 3404
0 2542 3479
0 2379 3560
0 2212 3635
0 2046 3703
0 1877 3767
0 1707 3824
0 1538 3875
0 1370 3921
0 2201 3640
0 2054 3700
0 1907 3756
0 1762 3806
0 1688 3830
0 1764 3805
0 1839 3780
0 1913 3753
0 1988 3726
0 2063 3697
0 2136 3667
0 2211 3636
0 2283 3604
0 2357 3570
0 2430 3535
0 2501 3500
0 2573 3463
0 2644 3425
0 2714 3386
0 2783 3345
0 2853 3303
0 2773 3351
0 2692 3398
0 2612 3442
0 2530 3485
0 2406 3546
0 2241 3623
0 2072 3693
0 1903 3757
0 1735 3815
0 1566 3867
0 1398 3914
0 2007 3719
0 1860 3772
0 1713 3822
0 1566 3867
0 1455 3898
0 1528 3878
0 1603 3856
0 1677 3833
0 1752 3809
0 1828 3784
0 1901 3757
0 1976 3730
0 2052 3701
0 2125 3672
0 2199 3641
0 2274 3608
0 2346 3575
0 2419 3541
0 2492 3505
0 2562 3469
0 2634 3431
0 2703 3392
0 2623 3437
0 2541 3480
0 2459 3521
0 2375 3561
0 2268 3610
0 2100 3682
0 1931 3747
0 1762 3806
0 1592 3860
0 1424 3907
0 1813 3789
0 1665 3837
0 1519 3881
0 1374 3920
0 1231 3955
0 1297 3939
0 1370 3921
0 1444 3901
0 1517 3881
0 1592 3860
0 1668 3836
0 1741 3813
0 1816 3787
0 1890 3762
0 1965 3734
0 2041 3705
0 2113 3676
0 2188 3645
0 2262 3613
0 2334 3581
0 2408 3546
0 2481 3511
0 2551 3474
0 2470 3515
0 2386 3557
0 2303 3595
0 2218 3632
0 2127 3671
0 1958 3737
0 1790 3797
0 1620 3851
0 1452 3899
0 1618 3851
0 1472 3894
0 1327 3932
0 1187 3965
0 1051 3994
0 1074 3989
0 1144 3974
0 1215 3958
0 1285 3942
0 1359 3924
0 1433 3904
0 1505 3884
0 1581 3863
0 1656 3840
0 1730 3817
0 1805 3792
0 1879 3766
0 1954 3739
0 2029 3710
0 2102 3681
0 2177 3650
0 2251 3618
0 2324 3586
0 2397 3551
0 2312 3590
0 2229 3628
0 2143 3664
0 2059 3698
0 1973 3732
0 1816 3787
0 1647 3843
0 1478 3892
0 1424 3907
0 1280 3943
0 1141 3975
0 1008 4002
0 887 4024
0 878 4026
0 937 4016
0 999 4004
0 1065 3991
0 1134 3976
0 1204 3961
0 1274 3944
0 1348 3927
0 1422 3908
0 1495 3888
0 1570 3866
0 1645 3843
0 1718 3820
0 1794 3795
0 1869 3769
0 1943 3743
0 2018 3715
0 2093 3685
0 2166 3655
0 2241 3623
0 2154 3659
0 2071 3694
0 1984 3727
0 1898 3760
0 1813 3789
0 1675 3834
0 1505 3884
0 1235 3954
0 1097 3984
0 968 4010
25 851 4030
963 628 4025
1185 570 4067
872 653 4015
501 784 4024
0 870 4028
0 927 4018
0 990 4006
0 1056 3992
0 1123 3979
0 1194 3963
0 1266 3947
0 1337 3929
0 1411 3910
0 1483 3891
0 1558 3869
0 1634 3847
0 1707 3824
0 1783 3799
0 1858 3773
0 1931 3747
0 2007 3719
0 2082 3689
0 1995 3723
0 1909 3755
0 1824 3785
0 1737 3814
0 1652 3841
0 1534 3876
0 1055 3992
0 927 4018
475 790 4024
1161 576 4061
1780 518 4095
2203 616 4095
1863 538 4095
1544 481 4095
1232 558 4078
913 641 4019
565 767 4022
0 861 4029
0 918 4019
0 980 4007
0 1046 3995
0 1112 3981
0 1183 3966
0 1255 3949
0 1326 3932
0 1400 3913
0 1474 3893
0 1547 3873
0 1622 3850
0 1696 3828
0 1771 3803
0 1847 3777
0 1920 3751
0 1835 3781
0 1749 3810
0 1664 3837
0 1577 3864
0 1493 3888
0 889 4024
738 710 4018
1356 528 4095
1997 570 4095
2672 691 4095
3261 693 4095
2937 707 4095
2603 683 4095
2255 627 4095
1913 550 4095
1592 478 4095
1278 547 4090
972 625 4027
626 749 4021
4 854 4030
0 909 4020
0 971 4009
0 1036 3996
0 1102 3983
0 1172 3968
0 1244 3952
0 1315 3934
0 1389 3916
0 1463 3896
0 1536 3876
0 1611 3854
0 1684 3831
0 1760 3806
0 1673 3835
0 1588 3860
0 1504 3885
0 1418 3909
947 632 4023
1560 478 4095
2212 617 4095
2887 704 4095
