static/luts/globe_test_01.CUBE
#Created by: Adobe Photoshop Export Color Lookup Plugin
TITLE "globe_test"
#LUT size
LUT_3D_SIZE 32
#data domain
DOMAIN_MIN 0.0 0.0 0.0
DOMAIN_MAX 1.0 1.0 1.0
#LUT data points
0.000000 0.000000 0.000000
0.029724 0.023346 0.000214
0.060883 0.047791 0.000458
0.092743 0.072815 0.000732
0.125397 0.098450 0.000977
0.158844 0.124695 0.001251
0.193115 0.151611 0.001526
0.228363 0.179260 0.001770
0.264709 0.207825 0.002075
0.302246 0.237274 0.002380
0.340729 0.267487 0.002686
0.379944 0.298279 0.002991
0.419678 0.329498 0.003296
0.459656 0.360870 0.003601
0.499634 0.392242 0.003937
0.539368 0.423462 0.004242
0.578583 0.454254 0.004547
0.617157 0.484528 0.004852
0.654633 0.513947 0.005157
0.690918 0.542419 0.005432
0.725677 0.569733 0.005707
0.758667 0.595612 0.005951
0.789734 0.619995 0.006195
0.818542 0.642639 0.006439
0.845123 0.663483 0.006653
0.869751 0.682861 0.006836
0.892731 0.700867 0.007019
0.914307 0.717804 0.007202
0.934723 0.733856 0.007355
0.954346 0.749237 0.007507
0.973419 0.764221 0.007660
0.992188 0.778961 0.007812
0.000214 0.029724 0.023346
0.006592 0.029724 0.000214
0.038177 0.054596 0.000458
0.070465 0.080048 0.000732
0.103577 0.106110 0.000977
0.137451 0.132812 0.001251
0.172150 0.160156 0.001526
0.207886 0.188324 0.001770
0.244751 0.217346 0.002075
0.282745 0.247284 0.002380
0.321777 0.278046 0.002686
0.361450 0.309326 0.002991
0.401794 0.341064 0.003296
0.442261 0.372986 0.003601
0.482758 0.404907 0.003937
0.523041 0.436615 0.004242
0.562836 0.467957 0.004547
0.601929 0.498749 0.004852
0.639832 0.528656 0.005157
0.676636 0.557617 0.005432
0.711792 0.585388 0.005707
0.745178 0.611725 0.005951
0.776764 0.636536 0.006195
0.805878 0.659515 0.006439
0.832886 0.680725 0.006653
0.857849 0.700409 0.006836
0.881165 0.718750 0.007019
0.903015 0.735992 0.007202
0.923737 0.752289 0.007355
0.943481 0.767944 0.007507
0.962891 0.783173 0.007660
0.981842 0.798157 0.007812
0.000458 0.060883 0.047791
0.006470 0.060883 0.024292
0.013550 0.060883 0.000458
0.045837 0.086334 0.000732
0.078918 0.112396 0.000977
0.112823 0.139099 0.001251
0.147552 0.166443 0.001526
0.183258 0.194611 0.001770
0.220123 0.223633 0.002075
0.258148 0.253571 0.002380
0.297119 0.284302 0.002686
0.336884 0.315613 0.002991
0.377167 0.347351 0.003296
0.417603 0.379272 0.003601
0.458191 0.411194 0.003937
0.498444 0.442902 0.004242
0.538177 0.474243 0.004547
0.577271 0.505005 0.004852
0.615204 0.534943 0.005157
0.651978 0.563904 0.005432
0.687134 0.591675 0.005707
0.720612 0.618011 0.005951
0.752075 0.642822 0.006195
0.781250 0.665802 0.006439
0.808258 0.687012 0.006653
0.833160 0.706696 0.006836
0.856537 0.725037 0.007019
0.878296 0.742279 0.007202
0.899017 0.758575 0.007355
0.918945 0.774231 0.007507
0.938293 0.789459 0.007660
0.957336 0.804443 0.007812
0.000732 0.092743 0.072815
0.006714 0.092743 0.049316
0.013000 0.092743 0.024689
0.020660 0.092743 0.000732
0.053741 0.118805 0.000977
0.087646 0.145538 0.001251
0.122345 0.172882 0.001526
0.158081 0.201019 0.001770
0.194916 0.230042 0.002075
0.232910 0.260010 0.002380
0.271942 0.290741 0.002686
0.311676 0.322021 0.002991
0.351959 0.353760 0.003296
0.392487 0.385681 0.003601
0.433014 0.417603 0.003937
0.473236 0.449341 0.004242
0.512909 0.480652 0.004547
0.552002 0.511444 0.004852
0.590057 0.541382 0.005157
0.626770 0.570312 0.005432
0.662079 0.598083 0.005707
0.695404 0.624420 0.005951
0.726929 0.649231 0.006195
0.756134 0.672241 0.006439
0.782959 0.693451 0.006653
0.807983 0.713104 0.006836
0.831207 0.731445 0.007019
0.853241 0.748688 0.007202
0.873932 0.764984 0.007355
0.893738 0.780640 0.007507
0.913116 0.795868 0.007660
0.932068 0.810883 0.007812
0.000977 0.125397 0.098450
0.006958 0.125397 0.074951
0.013245 0.125397 0.050323
0.019684 0.125397 0.025116
0.027924 0.125397 0.000977
0.061798 0.152100 0.001251
0.096558 0.179443 0.001526
0.132263 0.207611 0.001770
0.169098 0.236633 0.002075
0.207092 0.266602 0.002380
0.246094 0.297333 0.002686
0.285828 0.328613 0.002991
0.326141 0.360352 0.003296
0.366577 0.392273 0.003601
0.407166 0.424194 0.003937
0.447449 0.455902 0.004242
0.487152 0.487244 0.004547
0.526245 0.518036 0.004852
0.564148 0.547943 0.005157
0.600891 0.576904 0.005432
0.636169 0.604675 0.005707
0.669617 0.631012 0.005951
0.701172 0.655823 0.006195
0.730225 0.678802 0.006439
0.757202 0.700043 0.006653
0.782135 0.719696 0.006836
0.805542 0.738037 0.007019
0.827332 0.755280 0.007202
0.847961 0.771576 0.007355
0.867950 0.787231 0.007507
0.887177 0.802460 0.007660
0.906189 0.817444 0.007812
0.001251 0.158844 0.124695
0.007233 0.158844 0.101196
0.013519 0.158844 0.076599
0.019928 0.158844 0.051361
0.026520 0.158844 0.025574
0.035400 0.158844 0.001251
0.070099 0.186188 0.001526
0.105835 0.214355 0.001770
0.142639 0.243378 0.002075
0.180664 0.273315 0.002380
0.219666 0.304077 0.002686
0.259460 0.335358 0.002991
0.299713 0.367096 0.003296
0.340240 0.399017 0.003601
0.380737 0.430939 0.003937
0.420990 0.462646 0.004242
0.460785 0.493988 0.004547
0.499817 0.524750 0.004852
0.537781 0.554688 0.005157
0.574493 0.583649 0.005432
0.609711 0.611420 0.005707
0.643127 0.637756 0.005951
0.674652 0.662567 0.006195
0.703827 0.685547 0.006439
0.730774 0.706757 0.006653
0.755768 0.726440 0.006836
0.778992 0.744781 0.007019
0.800842 0.762024 0.007202
0.821625 0.778320 0.007355
0.841431 0.793976 0.007507
0.860901 0.809204 0.007660
0.879791 0.824188 0.007812
0.001526 0.193115 0.151611
0.007507 0.193115 0.128082
0.013794 0.193115 0.103485
0.020203 0.193115 0.078308
0.026794 0.193115 0.052460
0.033539 0.193115 0.026062
0.042999 0.193115 0.001526
0.078735 0.221252 0.001770
0.115570 0.250275 0.002075
0.153595 0.280243 0.002380
0.192566 0.310974 0.002686
0.232330 0.342285 0.002991
0.272583 0.374023 0.003296
0.313080 0.405914 0.003601
0.353638 0.437836 0.003937
0.393829 0.469574 0.004242
0.433655 0.500885 0.004547
0.472656 0.531677 0.004852
0.510712 0.561615 0.005157
0.547424 0.590546 0.005432
0.582672 0.618317 0.005707
0.616028 0.644653 0.005951
0.647522 0.669464 0.006195
0.676849 0.692474 0.006439
0.703674 0.713684 0.006653
0.728729 0.733368 0.006836
0.751953 0.751678 0.007019
0.773834 0.768921 0.007202
0.794556 0.785248 0.007355
0.814331 0.800873 0.007507
0.833649 0.816101 0.007660
0.852783 0.831116 0.007812
0.001770 0.228363 0.179260
0.007782 0.228363 0.155792
0.014069 0.228363 0.131165
0.020477 0.228363 0.105988
0.027069 0.228363 0.080139
0.033813 0.228363 0.053711
0.040710 0.228363 0.026581
0.050873 0.228363 0.001770
0.087738 0.257385 0.002075
0.125732 0.287354 0.002380
0.164764 0.318085 0.002686
0.204437 0.349365 0.002991
0.244720 0.381104 0.003296
0.285248 0.413025 0.003601
0.325775 0.444946 0.003937
0.366058 0.476654 0.004242
0.405731 0.507996 0.004547
0.444794 0.538788 0.004852
0.482819 0.568695 0.005157
0.519531 0.597656 0.005432
0.554810 0.625427 0.005707
0.588226 0.651764 0.005951
0.619781 0.676575 0.006195
0.648865 0.699554 0.006439
0.675812 0.720795 0.006653
0.700897 0.740448 0.006836
0.724030 0.758789 0.007019
0.745941 0.776031 0.007202
0.766602 0.792328 0.007355
0.786530 0.807983 0.007507
0.805847 0.823212 0.007660
0.824829 0.838196 0.007812
0.002075 0.264709 0.207825
0.008057 0.264709 0.184326
0.014343 0.264709 0.159698
0.020782 0.264709 0.134491
0.027344 0.264709 0.108704
0.034088 0.264709 0.082245
0.041016 0.264709 0.055145
0.048096 0.264709 0.027313
0.058960 0.264709 0.002075
0.096954 0.294678 0.002380
0.136017 0.325409 0.002686
0.175720 0.356720 0.002991
0.215973 0.388458 0.003296
0.256500 0.420349 0.003601
0.297028 0.452301 0.003937
0.337311 0.484009 0.004242
0.377045 0.515320 0.004547
0.416077 0.546112 0.004852
0.454132 0.576050 0.005157
0.490875 0.604980 0.005432
0.526093 0.632751 0.005707
0.559540 0.659088 0.005951
0.590973 0.683899 0.006195
0.620117 0.706909 0.006439
0.647095 0.728119 0.006653
0.671997 0.747803 0.006836
0.695251 0.766113 0.007019
0.717194 0.783356 0.007202
0.737915 0.799683 0.007355
0.757812 0.815308 0.007507
0.777069 0.830566 0.007660
0.796112 0.845551 0.007812
0.002380 0.302246 0.237274
0.008362 0.302246 0.213776
0.014648 0.302246 0.189148
0.021057 0.302246 0.163971
0.027649 0.302246 0.138123
0.034393 0.302246 0.111694
0.041290 0.302246 0.084625
0.048401 0.302246 0.056732
0.055725 0.302246 0.027985
0.067322 0.302246 0.002380
0.106354 0.332977 0.002686
0.146088 0.364258 0.002991
0.186310 0.395996 0.003296
0.226868 0.427917 0.003601
0.267334 0.459839 0.003937
0.307648 0.491577 0.004242
0.347321 0.522888 0.004547
0.386444 0.553680 0.004852
0.424438 0.583588 0.005157
0.461151 0.612549 0.005432
0.496399 0.640320 0.005707
0.529785 0.666656 0.005951
0.561249 0.691467 0.006195
0.590576 0.714447 0.006439
0.617401 0.735687 0.006653
0.642456 0.755341 0.006836
0.665619 0.773682 0.007019
0.687561 0.790924 0.007202
0.708313 0.807220 0.007355
0.728149 0.822876 0.007507
0.747406 0.838104 0.007660
0.766418 0.853119 0.007812
0.002686 0.340729 0.267487
0.008667 0.340729 0.244049
0.014954 0.340729 0.219360
0.021393 0.340729 0.194183
0.027954 0.340729 0.168335
0.034698 0.340729 0.141907
0.041626 0.340729 0.114807
0.048706 0.340729 0.086975
0.056061 0.340729 0.058258
0.063629 0.340729 0.028595
0.075928 0.340729 0.002686
0.115662 0.372040 0.002991
0.155945 0.403778 0.003296
0.196442 0.435669 0.003601
0.236938 0.467621 0.003937
0.277130 0.499329 0.004242
0.316956 0.530640 0.004547
0.356049 0.561432 0.004852
0.393982 0.591370 0.005157
0.430756 0.620300 0.005432
0.466003 0.648071 0.005707
0.499359 0.674408 0.005951
0.530914 0.699219 0.006195
0.560089 0.722229 0.006439
0.587067 0.743439 0.006653
0.611938 0.763123 0.006836
0.635315 0.781433 0.007019
0.657196 0.798676 0.007202
0.677826 0.815002 0.007355
0.697784 0.830627 0.007507
0.716980 0.845886 0.007660
0.735962 0.860870 0.007812
0.002991 0.379944 0.298279
0.008972 0.379944 0.274750
0.015259 0.379944 0.250153
0.021667 0.379944 0.224945
0.028259 0.379944 0.199158
0.035004 0.379944 0.172729
0.041901 0.379944 0.145599
0.049011 0.379944 0.117737
0.056335 0.379944 0.088989
0.063904 0.379944 0.059387
0.071655 0.379944 0.028931
0.084625 0.379944 0.002991
0.124908 0.411682 0.003296
0.165405 0.443573 0.003601
0.205902 0.475525 0.003937
0.246216 0.507233 0.004242
0.285889 0.538544 0.004547
0.324982 0.569336 0.004852
0.363007 0.599274 0.005157
0.399811 0.628204 0.005432
0.434906 0.655975 0.005707
0.468445 0.682312 0.005951
0.499817 0.707123 0.006195
0.529114 0.730133 0.006439
0.556091 0.751343 0.006653
0.581024 0.771027 0.006836
0.604309 0.789337 0.007019
0.626160 0.806580 0.007202
0.646790 0.822906 0.007355
0.666656 0.838531 0.007507
0.685974 0.853790 0.007660
0.704926 0.868774 0.007812
0.003296 0.419678 0.329498
0.009277 0.419678 0.306000
0.015564 0.419678 0.281372
0.022003 0.419678 0.256165
0.028564 0.419678 0.230347
0.035309 0.419678 0.203918
0.042236 0.419678 0.176819
0.049316 0.419678 0.148956
0.056671 0.419678 0.120178
0.064240 0.419678 0.090515
0.071991 0.419678 0.060150
0.079895 0.419678 0.029114
0.093506 0.419678 0.003296
0.133972 0.451599 0.003601
0.174469 0.483521 0.003937
0.214783 0.515228 0.004242
0.254517 0.546570 0.004547
0.293518 0.577362 0.004852
0.331573 0.607269 0.005157
0.368347 0.636230 0.005432
0.403534 0.664001 0.005707
0.436981 0.690338 0.005951
0.468414 0.715149 0.006195
0.497681 0.738129 0.006439
0.524597 0.759338 0.006653
0.549652 0.779022 0.006836
0.572754 0.797363 0.007019
0.594727 0.814606 0.007202
0.615417 0.830902 0.007355
0.635315 0.846558 0.007507
0.654602 0.861786 0.007660
0.673553 0.876770 0.007812
0.003601 0.459656 0.360870
0.009613 0.459656 0.337341
0.015900 0.459656 0.312683
0.022308 0.459656 0.287598
0.028900 0.459656 0.261688
0.035645 0.459656 0.235321
0.042542 0.459656 0.208191
0.049652 0.459656 0.180359
0.056976 0.459656 0.151581
0.064545 0.459656 0.121948
0.072296 0.459656 0.091522
0.080200 0.459656 0.060486
0.088226 0.459656 0.029083
0.102417 0.459656 0.003601
0.142944 0.491577 0.003937
0.183136 0.523285 0.004242
0.222900 0.554626 0.004547
0.261963 0.585419 0.004852
0.299988 0.615326 0.005157
0.336731 0.644287 0.005432
0.371887 0.672058 0.005707
0.405334 0.698395 0.005951
0.436890 0.723206 0.006195
0.466064 0.746185 0.006439
0.492950 0.767395 0.006653
0.517914 0.787079 0.006836
0.541229 0.805420 0.007019
0.563141 0.822662 0.007202
0.583832 0.838959 0.007355
0.603638 0.854614 0.007507
0.623016 0.869843 0.007660
0.641937 0.884827 0.007812
0.003937 0.499634 0.392242
0.009918 0.499634 0.368744
0.016205 0.499634 0.344147
0.022614 0.499634 0.318970
0.029205 0.499634 0.293121
0.035950 0.499634 0.266724
0.042847 0.499634 0.239624
0.049957 0.499634 0.211731
0.057312 0.499634 0.183014
0.064850 0.499634 0.153290
0.072632 0.499634 0.122925
0.080536 0.499634 0.091858
0.088531 0.499634 0.060455
0.096588 0.499634 0.028900
0.111328 0.499634 0.003937
0.151611 0.531342 0.004242
0.191315 0.562683 0.004547
0.230377 0.593475 0.004852
0.268402 0.623383 0.005157
0.305145 0.652344 0.005432
0.340363 0.680115 0.005707
0.373871 0.706451 0.005951
0.405304 0.731262 0.006195
0.434479 0.754242 0.006439
0.461304 0.775452 0.006653
0.486328 0.795135 0.006836
0.509705 0.813477 0.007019
0.531555 0.830719 0.007202
0.552277 0.847015 0.007355
0.572144 0.862671 0.007507
0.591461 0.877899 0.007660
0.610352 0.892883 0.007812
0.004242 0.539368 0.423462
0.010254 0.539368 0.399933
0.016510 0.539368 0.375366
0.022949 0.539368 0.350159
0.029541 0.539368 0.324371
0.036255 0.539368 0.297913
0.043182 0.539368 0.270752
0.050293 0.539368 0.242950
0.057617 0.539368 0.214203
0.065186 0.539368 0.184540
0.072937 0.539368 0.154053
0.080841 0.539368 0.123108
0.088867 0.539368 0.091705
0.096924 0.539368 0.060028
0.104980 0.539368 0.028503
0.120148 0.539368 0.004242
0.159912 0.570679 0.004547
0.198944 0.601471 0.004852
0.236908 0.631409 0.005157
0.273682 0.660370 0.005432
0.308990 0.688110 0.005707
0.342377 0.714447 0.005951
0.373932 0.739258 0.006195
0.403046 0.762268 0.006439
0.429993 0.783478 0.006653
0.454956 0.803162 0.006836
0.478180 0.821472 0.007019
0.500153 0.838715 0.007202
0.520874 0.855042 0.007355
0.540649 0.870667 0.007507
0.559906 0.885925 0.007660
0.578949 0.900909 0.007812
0.004547 0.578583 0.454254
0.010529 0.578583 0.430817
0.016815 0.578583 0.406128
0.023224 0.578583 0.380890
0.029816 0.578583 0.355072
0.036560 0.578583 0.328735
0.043457 0.578583 0.301575
0.050568 0.578583 0.273682
0.057922 0.578583 0.244965
0.065460 0.578583 0.215271
0.073242 0.578583 0.184875
0.081146 0.578583 0.153870
0.089142 0.578583 0.122467
0.097198 0.578583 0.090881
0.105255 0.578583 0.059265
0.113281 0.578583 0.027893
0.128906 0.578583 0.004547
0.167999 0.609375 0.004852
0.205994 0.639313 0.005157
0.242737 0.668274 0.005432
0.277893 0.696014 0.005707
0.311340 0.722382 0.005951
0.342804 0.747162 0.006195
0.372070 0.770172 0.006439
0.398987 0.791382 0.006653
0.423889 0.811066 0.006836
0.447174 0.829407 0.007019
0.469086 0.846619 0.007202
0.489838 0.862946 0.007355
0.509705 0.878601 0.007507
0.528900 0.893829 0.007660
0.547943 0.908813 0.007812
0.004852 0.617157 0.484528
0.010864 0.617157 0.461060
0.017120 0.617157 0.436401
0.023560 0.617157 0.411163
0.030151 0.617157 0.385406
0.036865 0.617157 0.358978
0.043793 0.617157 0.331818
0.050903 0.617157 0.303955
0.058228 0.617157 0.275238
0.065796 0.617157 0.245575
0.073547 0.617157 0.215210
0.081451 0.617157 0.184143
0.089478 0.617157 0.152679
0.097534 0.617157 0.121124
0.105591 0.617157 0.089539
0.113586 0.617157 0.058105
0.121490 0.617157 0.027130
0.137482 0.617157 0.004852
0.175507 0.647095 0.005157
0.212189 0.676025 0.005432
0.247528 0.703796 0.005707
0.280853 0.730133 0.005951
0.312347 0.754944 0.006195
0.341583 0.777954 0.006439
0.368500 0.799164 0.006653
0.393524 0.818848 0.006836
0.416656 0.837158 0.007019
0.438568 0.854401 0.007202
0.459351 0.870697 0.007355
0.479126 0.886353 0.007507
0.498474 0.901581 0.007660
0.517456 0.916595 0.007812
0.005157 0.654633 0.513947
0.011139 0.654633 0.490448
0.017426 0.654633 0.465820
0.023834 0.654633 0.440674
0.030426 0.654633 0.414764
0.037170 0.654633 0.388367
0.044067 0.654633 0.361328
0.051178 0.654633 0.333405
0.058533 0.654633 0.304718
0.066071 0.654633 0.275024
0.073853 0.654633 0.244568
0.081757 0.654633 0.213623
0.089752 0.654633 0.182190
0.097809 0.654633 0.150574
0.105865 0.654633 0.118988
0.113892 0.654633 0.087524
0.121796 0.654633 0.056580
0.129547 0.654633 0.026123
0.145844 0.654633 0.005157
0.182587 0.683594 0.005432
0.217804 0.711365 0.005707
0.251312 0.737701 0.005951
0.282745 0.762512 0.006195
0.311890 0.785492 0.006439
0.338806 0.806702 0.006653
0.363800 0.826385 0.006836
0.387024 0.844727 0.007019
0.408905 0.861969 0.007202
0.429596 0.878265 0.007355
0.449493 0.893921 0.007507
0.468781 0.909149 0.007660
0.487793 0.924133 0.007812
0.005432 0.690918 0.542419
0.011444 0.690918 0.518951
0.017731 0.690918 0.494293
0.024139 0.690918 0.469086
0.030731 0.690918 0.443207
0.037476 0.690918 0.416809
0.044373 0.690918 0.389740
0.051483 0.690918 0.361877
0.058807 0.690918 0.333191
0.066376 0.690918 0.303467
0.074127 0.690918 0.273071
0.082031 0.690918 0.242126
0.090057 0.690918 0.210663
0.098114 0.690918 0.179047
0.106171 0.690918 0.147461
0.114166 0.690918 0.115997
0.122070 0.690918 0.085052
0.129852 0.690918 0.054504
0.137421 0.690918 0.024902
0.153931 0.690918 0.005432
0.189117 0.718658 0.005707
0.222595 0.744995 0.005951
0.254120 0.769806 0.006195
0.283295 0.792816 0.006439
0.310120 0.814026 0.006653
0.335083 0.833710 0.006836
0.358429 0.852051 0.007019
0.380341 0.869263 0.007202
0.400909 0.885590 0.007355
0.420929 0.901215 0.007507
0.440247 0.916473 0.007660
0.459259 0.931458 0.007812
0.005707 0.725677 0.569733
0.011719 0.725677 0.546173
0.017975 0.725677 0.521545
0.024414 0.725677 0.496490
0.031006 0.725677 0.470551
0.037720 0.725677 0.444092
0.044647 0.725677 0.417053
0.051758 0.725677 0.389191
0.059082 0.725677 0.360474
0.066650 0.725677 0.330780
0.074402 0.725677 0.300385
0.082306 0.725677 0.269318
0.090332 0.725677 0.237946
0.098389 0.725677 0.206268
0.106445 0.725677 0.174744
0.114441 0.725677 0.143372
0.122345 0.725677 0.112305
0.130127 0.725677 0.081909
0.137665 0.725677 0.052216
0.144989 0.725677 0.023499
0.161652 0.725677 0.005707
0.195038 0.752014 0.005951
0.226532 0.776825 0.006195
0.255798 0.799805 0.006439
0.282684 0.821045 0.006653
0.307739 0.840698 0.006836
0.330872 0.859039 0.007019
0.352783 0.876282 0.007202
0.373474 0.892578 0.007355
0.393311 0.908234 0.007507
0.412598 0.923462 0.007660
0.431671 0.938446 0.007812
0.005951 0.758667 0.595612
0.011963 0.758667 0.572052
0.018219 0.758667 0.547455
0.024658 0.758667 0.522247
0.031250 0.758667 0.496490
0.037964 0.758667 0.470001
0.044891 0.758667 0.442902
0.052002 0.758667 0.415070
0.059326 0.758667 0.386383
0.066895 0.758667 0.356659
0.074646 0.758667 0.326202
0.082550 0.758667 0.295319
0.090576 0.758667 0.263824
0.098633 0.758667 0.232208
0.106689 0.758667 0.200714
0.114685 0.758667 0.169250
0.122589 0.758667 0.138184
0.130371 0.758667 0.107727
0.137909 0.758667 0.078156
0.145233 0.758667 0.049438
0.152252 0.758667 0.021912
0.169006 0.758667 0.005951
0.200470 0.783478 0.006195
0.229736 0.806458 0.006439
0.256592 0.827698 0.006653
0.281555 0.847351 0.006836
0.304840 0.865692 0.007019
0.326691 0.882935 0.007202
0.347504 0.899231 0.007355
0.367340 0.914886 0.007507
0.386688 0.930115 0.007660
0.405640 0.945129 0.007812
0.006195 0.789734 0.619995
0.012207 0.789734 0.596558
0.018463 0.789734 0.571838
0.024902 0.789734 0.546692
0.031494 0.789734 0.520935
0.038208 0.789734 0.494415
0.045135 0.789734 0.467285
0.052246 0.789734 0.439545
0.059570 0.789734 0.410736
0.067139 0.789734 0.381012
0.074890 0.789734 0.350677
0.082794 0.789734 0.319580
0.090820 0.789734 0.288177
0.098877 0.789734 0.256622
0.106934 0.789734 0.225098
0.114929 0.789734 0.193665
0.122833 0.789734 0.162598
0.130615 0.789734 0.132111
0.138153 0.789734 0.102539
0.145477 0.789734 0.073883
0.152496 0.789734 0.046295
0.159149 0.789734 0.020203
0.175934 0.789734 0.006195
0.205109 0.812744 0.006439
0.231995 0.833954 0.006653
0.257050 0.853638 0.006836
0.280212 0.871948 0.007019
0.302155 0.889191 0.007202
0.322784 0.905518 0.007355
0.342651 0.921143 0.007507
0.362061 0.936401 0.007660
0.381134 0.951385 0.007812
0.006439 0.818542 0.642639
0.012451 0.818542 0.619080
0.018707 0.818542 0.594452
0.025146 0.818542 0.569336
0.031738 0.818542 0.543427
0.038452 0.818542 0.517029
0.045380 0.818542 0.490021
0.052490 0.818542 0.462067
0.059814 0.818542 0.433289
0.067383 0.818542 0.403748
0.075134 0.818542 0.373291
0.083038 0.818542 0.342316
0.091064 0.818542 0.310883
0.099121 0.818542 0.279266
0.107178 0.818542 0.247681
0.115173 0.818542 0.216217
0.123077 0.818542 0.185272
0.130859 0.818542 0.154785
0.138397 0.818542 0.125092
0.145721 0.818542 0.096497
0.152740 0.818542 0.069000
0.159393 0.818542 0.042938
0.165649 0.818542 0.018280
0.182343 0.818542 0.006439
0.209320 0.839752 0.006653
0.234222 0.859436 0.006836
0.257446 0.877777 0.007019
0.279419 0.894989 0.007202
0.300049 0.911316 0.007355
0.320007 0.926971 0.007507
0.339355 0.942200 0.007660
0.358337 0.957184 0.007812
0.006653 0.845123 0.663483
0.012634 0.845123 0.640015
0.018921 0.845123 0.615356
0.025330 0.845123 0.590088
0.031921 0.845123 0.564331
0.038666 0.845123 0.537903
0.045563 0.845123 0.510803
0.052673 0.845123 0.482941
0.059998 0.845123 0.454224
0.067566 0.845123 0.424530
0.075317 0.845123 0.394196
0.083221 0.845123 0.363190
0.091248 0.845123 0.331726
0.099304 0.845123 0.300079
0.107361 0.845123 0.268433
0.115356 0.845123 0.237091
0.123291 0.845123 0.206116
0.131042 0.845123 0.175629
0.138611 0.845123 0.145935
0.145905 0.845123 0.117249
0.152924 0.845123 0.089813
0.159576 0.845123 0.063721
0.165833 0.845123 0.039124
0.171661 0.845123 0.016418
0.188263 0.845123 0.006653
0.213226 0.864777 0.006836
0.236420 0.883118 0.007019
0.258392 0.900360 0.007202
0.279144 0.916656 0.007355
0.299011 0.932312 0.007507
0.318298 0.947540 0.007660
0.337280 0.962555 0.007812
0.006836 0.869751 0.682861
0.012817 0.869751 0.659332
0.019104 0.869751 0.634644
0.025543 0.869751 0.609497
0.032104 0.869751 0.583649
0.038849 0.869751 0.557281
0.045776 0.869751 0.530243
0.052856 0.869751 0.502380
0.060211 0.869751 0.473511
0.067780 0.869751 0.443970
0.075531 0.869751 0.413422
0.083435 0.869751 0.382507
0.091431 0.869751 0.351135
0.099487 0.869751 0.319397
0.107544 0.869751 0.287842
0.115570 0.869751 0.256470
0.123474 0.869751 0.225403
0.131256 0.869751 0.195007
0.138794 0.869751 0.165314
0.146118 0.869751 0.136597
0.153107 0.869751 0.109222
0.159790 0.869751 0.083069
0.166046 0.869751 0.058533
0.171844 0.869751 0.035706
0.177216 0.869751 0.014709
0.193756 0.869751 0.006836
0.216980 0.888092 0.007019
0.238983 0.905334 0.007202
0.259644 0.921631 0.007355
0.279480 0.937286 0.007507
0.298767 0.952515 0.007660
0.317749 0.967499 0.007812
0.007019 0.892731 0.700867
0.013031 0.892731 0.677429
0.019318 0.892731 0.652802
0.025726 0.892731 0.627472
0.032318 0.892731 0.601807
0.039062 0.892731 0.575256
0.045959 0.892731 0.548218
0.053070 0.892731 0.520294
0.060394 0.892731 0.491516
0.067963 0.892731 0.461884
0.075714 0.892731 0.431549
0.083618 0.892731 0.400543
0.091644 0.892731 0.369049
0.099701 0.892731 0.337494
0.107758 0.892731 0.305969
0.115753 0.892731 0.274445
0.123657 0.892731 0.243439
0.131439 0.892731 0.212921
0.139008 0.892731 0.183289
0.146301 0.892731 0.154694
0.153320 0.892731 0.127136
0.159973 0.892731 0.101105
0.166229 0.892731 0.076477
0.172028 0.892731 0.053741
0.177399 0.892731 0.032715
0.182373 0.892731 0.013245
0.198883 0.892731 0.007019
0.220825 0.909943 0.007202
0.241425 0.926270 0.007355
0.261230 0.941925 0.007507
0.280731 0.957153 0.007660
0.299744 0.972137 0.007812
0.007202 0.914307 0.717804
0.013184 0.914307 0.694336
0.019470 0.914307 0.669647
0.025909 0.914307 0.644592
0.032471 0.914307 0.618652
0.039215 0.914307 0.592194
0.046143 0.914307 0.565186
0.053223 0.914307 0.537292
0.060577 0.914307 0.508545
0.068146 0.914307 0.478912
0.075897 0.914307 0.448517
0.083801 0.914307 0.417480
0.091797 0.914307 0.386078
0.099854 0.914307 0.354492
0.107910 0.914307 0.322906
0.115936 0.914307 0.291473
0.123840 0.914307 0.260406
0.131622 0.914307 0.229889
