static/luts/globe_test_01.3DL
#Created by: Adobe Photoshop Export Color Lookup Plugin
#Description: Globe_Report_Cover_0001.png
0 33 66 99 132 165 198 231 264 297 330 363 396 429 462 495 528 561 594 627 660 693 726 759 792 825 858 891 924 957 990 1023
0 0 0
0 20 160
0 41 327
0 64 489
0 92 636
0 120 782
0 152 922
0 184 1066
0 217 1212
0 253 1360
0 288 1515
0 325 1671
0 361 1831
0 399 1989
0 436 2151
0 473 2308
0 510 2464
0 546 2617
0 581 2765
0 614 2910
0 647 3048
0 678 3179
0 707 3302
0 734 3417
0 761 3508
0 795 3550
0 826 3588
0 856 3622
0 884 3654
0 911 3685
0 938 3714
0 964 3741
30 109 51
16 97 182
21 139 371
18 166 520
16 193 675
13 221 832
8 251 993
3 282 1157
0 314 1319
0 348 1477
0 383 1634
0 419 1796
0 455 1958
0 492 2120
0 528 2284
0 565 2444
0 600 2603
0 636 2757
0 671 2908
0 704 3054
0 737 3193
0 768 3326
0 796 3451
0 823 3565
0 851 3654
0 885 3694
0 917 3729
0 947 3761
0 975 3791
0 1003 3818
0 1030 3844
0 1057 3870
57 226 100
39 208 187
33 206 335
33 277 543
32 303 697
29 331 854
25 361 1014
22 391 1180
17 422 1350
11 455 1525
6 489 1705
1 523 1889
0 558 2058
0 595 2225
0 630 2392
0 666 2556
0 702 2719
0 737 2878
0 770 3032
0 804 3178
0 836 3322
0 866 3456
0 895 3582
0 921 3698
0 949 3786
0 983 3823
0 1016 3855
0 1046 3885
0 1075 3913
0 1103 3938
0 1130 3963
0 1157 3986
76 350 148
51 327 188
45 325 341
43 324 475
46 417 720
44 445 877
41 474 1037
38 504 1203
34 535 1373
31 566 1549
26 600 1729
20 634 1913
15 669 2099
9 704 2285
3 739 2471
0 774 2648
0 809 2814
0 844 2977
0 877 3133
0 909 3285
0 940 3429
0 970 3568
0 998 3694
0 1024 3814
0 1053 3901
0 1088 3936
0 1120 3966
0 1151 3993
0 1180 4019
0 1209 4044
0 1236 4067
0 1264 4089
92 479 204
64 449 213
57 445 353
56 446 481
51 446 619
56 544 876
56 590 1061
53 620 1226
50 651 1396
47 682 1572
43 715 1752
39 749 1937
34 783 2123
29 818 2310
23 852 2497
18 887 2682
12 922 2866
6 955 3045
0 989 3220
0 1021 3375
0 1051 3523
0 1081 3663
0 1108 3795
0 1134 3916
0 1162 4001
0 1198 4033
0 1231 4062
0 1262 4089
8 1291 4095
17 1319 4095
27 1346 4095
37 1373 4095
109 607 273
81 578 278
70 568 373
68 569 492
66 570 625
63 569 767
66 671 1029
68 740 1250
65 770 1420
62 802 1596
59 834 1776
56 867 1960
51 901 2146
47 935 2334
43 970 2521
38 1004 2707
32 1038 2891
27 1072 3071
22 1105 3246
16 1137 3415
11 1168 3577
6 1196 3731
2 1224 3877
0 1249 4004
0 1278 4088
10 1313 4095
22 1345 4095
34 1376 4095
44 1404 4095
55 1432 4095
65 1458 4095
75 1485 4095
125 739 347
98 711 347
80 694 396
80 695 511
79 696 636
77 697 773
73 696 919
77 801 1188
80 893 1445
78 924 1620
75 956 1800
72 990 1984
69 1023 2171
65 1057 2358
60 1091 2545
56 1125 2732
52 1159 2915
47 1192 3096
42 1224 3271
38 1256 3441
32 1286 3603
28 1315 3758
24 1343 3903
19 1367 4037
31 1396 4095
44 1430 4095
57 1462 4095
69 1492 4095
81 1520 4095
92 1547 4095
103 1574 4095
114 1600 4095
142 875 424
115 847 420
90 822 430
92 824 534
92 827 651
91 827 784
88 827 925
84 827 1074
88 935 1352
92 1046 1639
90 1083 1826
88 1115 2010
85 1149 2195
82 1182 2383
78 1216 2570
74 1250 2757
70 1283 2941
66 1316 3121
62 1348 3297
57 1380 3467
53 1410 3629
49 1439 3784
45 1465 3929
41 1491 4064
64 1517 4095
79 1551 4095
92 1583 4095
105 1612 4095
118 1640 4095
129 1667 4095
141 1693 4095
153 1719 4095
160 1015 501
133 987 495
105 959 487
102 957 567
104 960 675
104 962 798
102 962 934
99 962 1080
95 962 1234
99 1073 1520
103 1187 1816
103 1246 2036
101 1279 2222
98 1312 2409
95 1345 2596
92 1379 2782
88 1412 2966
85 1445 3147
81 1477 3323
77 1508 3493
73 1538 3655
69 1566 3810
66 1593 3956
62 1618 4090
99 1643 4095
114 1676 4095
129 1708 4095
142 1736 4095
155 1764 4095
168 1790 4095
180 1816 4095
193 1842 4095
178 1159 582
151 1132 573
123 1103 563
113 1092 606
116 1097 704
117 1099 819
116 1101 948
114 1101 1089
110 1101 1240
106 1101 1399
111 1215 1693
115 1331 1994
117 1413 2249
114 1446 2436
112 1480 2622
109 1513 2809
106 1546 2993
103 1578 3173
99 1610 3349
96 1641 3519
92 1671 3682
89 1699 3837
85 1726 3983
95 1748 4095
134 1773 4095
151 1805 4095
166 1836 4095
181 1865 4095
194 1892 4095
208 1918 4095
221 1943 4095
234 1968 4095
196 1307 665
170 1280 654
142 1252 642
122 1231 652
126 1237 739
129 1240 846
129 1242 969
128 1243 1103
126 1244 1249
122 1244 1406
118 1244 1569
123 1360 1868
127 1478 2173
131 1584 2464
128 1617 2650
126 1651 2836
123 1683 3020
120 1716 3200
117 1747 3376
114 1778 3546
111 1807 3709
108 1836 3864
105 1862 4010
131 1881 4095
171 1905 4095
189 1938 4095
205 1968 4095
220 1996 4095
235 2023 4095
249 2048 4095
263 2073 4095
277 2098 4095
215 1457 751
189 1431 737
161 1403 724
133 1375 710
137 1378 783
140 1383 879
142 1386 993
142 1388 1122
141 1389 1263
138 1390 1415
135 1390 1575
130 1390 1742
135 1507 2045
139 1625 2351
143 1743 2658
143 1791 2865
140 1824 3048
138 1856 3228
135 1887 3404
132 1918 3574
130 1947 3737
127 1975 3892
124 2001 4038
171 2015 4095
209 2040 4095
228 2071 4095
245 2101 4095
261 2129 4095
277 2156 4095
292 2181 4095
307 2205 4095
322 2229 4095
235 1610 836
208 1584 821
181 1556 807
153 1528 792
147 1522 830
152 1527 918
154 1531 1024
155 1534 1145
155 1536 1281
153 1536 1428
150 1537 1585
147 1537 1749
142 1537 1917
147 1655 2222
152 1773 2528
156 1891 2833
157 1966 3077
155 1999 3257
152 2030 3433
150 2060 3603
148 2089 3765
145 2117 3920
143 2143 4066
212 2150 4095
249 2176 4095
269 2207 4095
287 2236 4095
305 2264 4095
321 2289 4095
337 2314 4095
353 2338 4095
369 2362 4095
254 1764 922
228 1738 907
201 1710 891
173 1682 875
156 1665 884
162 1672 962
166 1677 1059
168 1680 1173
169 1683 1303
168 1684 1445
166 1685 1598
163 1685 1758
159 1685 1924
155 1685 2094
160 1803 2398
164 1921 2703
168 2037 3004
171 2142 3287
169 2173 3462
167 2203 3631
165 2232 3794
163 2260 3948
161 2286 4094
256 2285 4095
291 2312 4095
312 2343 4095
331 2371 4095
350 2398 4095
367 2423 4095
384 2448 4095
401 2471 4095
417 2494 4095
273 1918 1008
247 1892 992
220 1864 976
192 1836 958
164 1808 941
172 1816 1011
177 1822 1099
180 1826 1206
182 1829 1328
182 1831 1465
181 1832 1613
178 1833 1770
175 1833 1933
171 1834 2100
167 1833 2270
172 1951 2573
176 2067 2873
180 2181 3169
184 2291 3456
184 2346 3661
182 2375 3823
180 2403 3977
200 2422 4095
304 2418 4095
335 2447 4095
357 2477 4095
377 2505 4095
397 2531 4095
415 2556 4095
433 2579 4095
451 2603 4095
468 2626 4095
292 2071 1093
266 2044 1077
240 2017 1059
212 1989 1042
184 1961 1023
181 1958 1063
187 1965 1144
192 1971 1243
194 1974 1359
195 1977 1489
195 1979 1632
193 1980 1784
191 1981 1944
187 1981 2109
183 1981 2276
179 1981 2445
184 2097 2744
188 2211 3039
192 2321 3326
196 2429 3604
199 2518 3852
197 2545 4006
244 2557 4095
354 2549 4095
380 2580 4095
404 2610 4095
425 2637 4095
446 2662 4095
465 2687 4095
484 2710 4095
503 2733 4095
521 2755 4095
311 2222 1179
286 2196 1161
259 2168 1143
231 2140 1124
203 2112 1104
190 2099 1119
197 2106 1192
202 2113 1283
205 2117 1392
207 2121 1517
208 2123 1654
207 2125 1802
205 2125 1958
203 2126 2119
199 2126 2285
195 2126 2451
191 2126 2618
196 2240 2912
200 2351 3198
204 2458 3476
208 2561 3743
211 2658 3997
291 2687 4095
401 2679 4095
428 2710 4095
452 2739 4095
475 2766 4095
497 2791 4095
517 2815 4095
537 2837 4095
557 2859 4095
577 2881 4095
330 2370 1262
304 2344 1244
277 2317 1225
250 2289 1205
222 2260 1186
198 2236 1176
206 2245 1242
212 2252 1327
216 2257 1428
219 2261 1546
221 2264 1678
220 2266 1822
219 2268 1974
217 2269 2132
214 2269 2294
211 2269 2460
207 2269 2624
202 2269 2788
207 2380 3073
212 2487 3351
215 2590 3617
219 2688 3870
236 2775 4095
444 2797 4095
477 2837 4095
503 2865 4095
527 2891 4095
550 2916 4095
572 2938 4095
593 2961 4095
614 2982 4095
635 3003 4095
348 2514 1343
322 2488 1324
296 2461 1305
268 2433 1285
240 2405 1264
211 2375 1244
214 2379 1293
221 2387 1372
226 2393 1467
230 2398 1579
232 2401 1705
233 2404 1844
232 2406 1992
231 2407 2147
229 2408 2306
226 2408 2469
222 2408 2632
218 2408 2793
214 2408 2953
219 2516 3229
223 2618 3495
227 2716 3748
230 2808 3986
347 2856 4095
493 2899 4095
551 2979 4095
580 3012 4095
605 3035 4095
628 3058 4095
651 3079 4095
673 3100 4095
695 3120 4095
365 2653 1421
340 2627 1403
313 2600 1382
286 2573 1362
258 2544 1341
229 2515 1320
222 2509 1346
230 2517 1418
236 2524 1507
241 2530 1613
243 2534 1734
245 2537 1868
245 2539 2012
244 2541 2163
242 2542 2320
240 2542 2480
237 2543 2640
233 2543 2801
229 2543 2959
225 2543 3113
230 2646 3378
234 2743 3630
237 2835 3868
240 2920 4089
450 2930 4095
541 2993 4095
597 3067 4095
652 3135 4095
687 3171 4095
710 3191 4095
733 3211 4095
757 3231 4095
382 2787 1497
357 2761 1477
330 2734 1457
303 2707 1436
274 2678 1414
246 2649 1393
229 2633 1398
238 2642 1465
245 2649 1548
250 2656 1649
254 2660 1764
256 2664 1893
257 2667 2033
256 2669 2181
255 2670 2334
253 2671 2492
250 2671 2650
247 2672 2809
244 2672 2965
240 2672 3119
236 2672 3266
240 2769 3518
244 2861 3755
247 2946 3976
344 2993 4095
531 3007 4095
588 3080 4095
643 3148 4095
697 3211 4095
750 3271 4095
796 3317 4095
820 3336 4095
398 2914 1568
372 2888 1548
346 2861 1528
319 2833 1506
291 2805 1485
262 2776 1463
236 2750 1449
245 2760 1511
253 2768 1589
259 2775 1685
263 2780 1796
266 2784 1920
267 2788 2055
267 2790 2200
267 2792 2350
265 2793 2505
263 2793 2661
260 2794 2818
257 2794 2973
253 2794 3125
250 2794 3272
246 2794 3412
250 2886 3648
254 2971 3869
257 3050 4072
447 3058 4095
578 3093 4095
634 3161 4095
688 3224 4095
742 3283 4095
797 3341 4095
852 3396 4095
413 3034 1635
387 3008 1615
361 2981 1594
334 2953 1572
306 2925 1551
277 2896 1529
247 2866 1507
252 2871 1555
260 2880 1629
267 2887 1720
272 2893 1826
275 2898 1947
277 2901 2078
278 2904 2219
278 2906 2366
276 2907 2518
274 2908 2673
272 2909 2828
269 2909 2981
266 2909 3131
263 2909 3277
259 2910 3417
255 2909 3549
259 2995 3768
263 3073 3971
343 3118 4095
547 3117 4095
625 3173 4095
679 3236 4095
733 3295 4095
788 3352 4095
844 3407 4095
427 3144 1698
401 3118 1677
375 3091 1656
348 3064 1634
319 3036 1612
291 3007 1590
261 2977 1568
258 2974 1599
267 2983 1668
274 2991 1754
279 2997 1856
283 3003 1972
286 3007 2100
287 3009 2238
287 3012 2382
287 3014 2532
285 3014 2684
283 3015 2838
280 3016 2990
278 3016 3139
274 3016 3283
271 3016 3422
267 3016 3553
264 3016 3676
268 3095 3878
271 3168 4066
453 3172 4095
616 3184 4095
671 3247 4095
725 3307 4095
781 3363 4095
837 3418 4095
439 3246 1755
414 3221 1734
388 3194 1713
360 3166 1691
333 3138 1669
304 3109 1646
274 3079 1624
263 3069 1639
273 3078 1705
280 3087 1787
286 3093 1885
291 3099 1998
294 3103 2122
295 3107 2257
296 3109 2399
296 3111 2546
295 3113 2696
293 3113 2848
291 3114 2998
288 3114 3146
285 3115 3290
282 3115 3427
279 3115 3558
275 3115 3680
272 3115 3793
275 3188 3980
357 3227 4095
561 3219 4095
663 3258 4095
718 3317 4095
773 3374 4095
829 3429 4095
451 3341 1808
426 3315 1787
400 3288 1766
372 3261 1743
344 3233 1721
316 3204 1699
286 3174 1676
268 3156 1677
278 3166 1740
286 3175 1819
293 3182 1914
297 3188 2022
301 3193 2143
303 3197 2275
304 3200 2414
304 3202 2559
303 3203 2708
302 3204 2857
300 3205 3007
297 3206 3154
295 3206 3296
292 3206 3433
289 3206 3563
286 3206 3684
283 3206 3797
280 3206 3902
283 3274 4076
476 3268 4095
656 3268 4095
710 3327 4095
766 3383 4095
822 3438 4095
462 3430 1858
437 3404 1837
411 3377 1815
383 3349 1793
356 3321 1771
327 3292 1748
297 3263 1725
273 3238 1713
283 3249 1773
291 3257 1849
298 3265 1940
304 3272 2046
307 3277 2165
310 3281 2293
311 3284 2430
312 3286 2573
311 3288 2720
310 3289 2868
308 3290 3016
306 3291 3161
304 3291 3303
301 3291 3439
298 3291 3568
295 3291 3689
292 3291 3801
290 3291 3906
287 3291 4003
388 3319 4095
591 3306 4095
704 3336 4095
759 3393 4095
816 3447 4095
473 3512 1904
448 3487 1884
421 3460 1862
394 3433 1839
366 3404 1816
337 3375 1794
308 3346 1771
277 3315 1748
287 3326 1805
296 3335 1878
304 3343 1967
309 3350 2069
314 3355 2185
317 3360 2311
318 3363 2445
319 3365 2586
319 3367 2731
318 3369 2878
316 3370 3025
314 3370 3168
312 3371 3309
309 3371 3445
307 3371 3573
304 3371 3693
301 3371 3805
299 3371 3909
296 3371 4006
298 3370 4095
513 3351 4095
697 3345 4095
753 3401 4095
809 3456 4095
483 3591 1949
457 3565 1928
431 3538 1906
404 3511 1883
