static/luts/globe_test_01.CUBE
#Created by: Adobe Photoshop Export Color Lookup Plugin
TITLE "globe_test"
#LUT size
LUT_3D_SIZE 5
#data domain
#LUT data points
DOMAIN_MIN 0.000000 0.000000 0.000000
DOMAIN_MAX 0.903226 0.903226 0.903226
0.000000 0.000000 0.000000
0.228363 0.179260 0.001770
0.499634 0.392242 0.003937
0.758667 0.595612 0.005951
0.934723 0.733856 0.007355
0.001770 0.228363 0.179260
0.050873 0.228363 0.001770
0.325775 0.444946 0.003937
0.588226 0.651764 0.005951
0.766602 0.792328 0.007355
0.003937 0.499634 0.392242
0.049957 0.499634 0.211731
0.111328 0.499634 0.003937
0.373871 0.706451 0.005951
0.552277 0.847015 0.007355
0.005951 0.758667 0.595612
0.052002 0.758667 0.415070
0.106689 0.758667 0.200714
0.169006 0.758667 0.005951
0.347504 0.899231 0.007355
0.007355 0.934723 0.733856
0.053375 0.934723 0.553253
0.108063 0.934723 0.338928
0.160278 0.934723 0.134186
0.208221 0.934723 0.007355
0.179260 0.001770 0.228363
0.228363 0.001770 0.050873
0.499634 0.211731 0.049957
0.758667 0.415070 0.052002
0.934723 0.553253 0.053375
0.001770 0.050873 0.228363
0.230164 0.230164 0.230164
0.501434 0.443115 0.232300
0.760468 0.646515 0.234344
0.936554 0.784760 0.235718
0.003937 0.325775 0.444946
0.232300 0.501434 0.443115
0.290588 0.501434 0.232300
0.553101 0.708252 0.234344
0.731506 0.848816 0.235718
0.005951 0.588226 0.651764
0.234344 0.760468 0.646515
0.289032 0.760468 0.432098
0.348297 0.760468 0.234344
0.526733 0.901062 0.235718
0.007355 0.766602 0.792328
0.235718 0.936554 0.784760
0.290405 0.936554 0.570282
0.342621 0.936554 0.365509
0.387512 0.936554 0.235718
0.392242 0.003937 0.499634
0.444946 0.003937 0.325775
0.499634 0.003937 0.111328
0.758667 0.200714 0.106689
0.934723 0.338928 0.108063
0.211731 0.049957 0.499634
0.443115 0.232300 0.501434
0.501434 0.232300 0.290588
0.760468 0.432098 0.289032
0.936554 0.570282 0.290405
0.003937 0.111328 0.499634
0.232300 0.290588 0.501434
0.503571 0.503571 0.503571
0.762604 0.706940 0.505585
0.938660 0.845154 0.506989
0.005951 0.373871 0.706451
0.234344 0.553101 0.708252
0.505585 0.762604 0.706940
0.561249 0.762604 0.505585
0.739655 0.903168 0.506989
0.007355 0.552277 0.847015
0.235718 0.731506 0.848816
0.506989 0.938660 0.845154
0.559204 0.938660 0.640350
0.600494 0.938660 0.506989
0.595612 0.005951 0.758667
0.651764 0.005951 0.588226
0.706451 0.005951 0.373871
0.758667 0.005951 0.169006
0.934723 0.134186 0.160278
0.415070 0.052002 0.758667
0.646515 0.234344 0.760468
0.708252 0.234344 0.553101
0.760468 0.234344 0.348297
0.936554 0.365509 0.342621
0.200714 0.106689 0.758667
0.432098 0.289032 0.760468
0.706940 0.505585 0.762604
0.762604 0.505585 0.561249
0.938660 0.640350 0.559204
0.005951 0.169006 0.758667
0.234344 0.348297 0.760468
0.505585 0.561249 0.762604
0.764648 0.764648 0.764648
0.940704 0.902893 0.766052
0.007355 0.347504 0.899231
0.235718 0.526733 0.901062
0.506989 0.739655 0.903168
0.766052 0.940704 0.902893
0.803864 0.940704 0.766052
0.733856 0.007355 0.934723
0.792328 0.007355 0.766602
0.847015 0.007355 0.552277
0.899231 0.007355 0.347504
0.934723 0.007355 0.208221
0.553253 0.053375 0.934723
0.784760 0.235718 0.936554
0.848816 0.235718 0.731506
0.901062 0.235718 0.526733
0.936554 0.235718 0.387512
0.338928 0.108063 0.934723
0.570282 0.290405 0.936554
0.845154 0.506989 0.938660
0.903168 0.506989 0.739655
0.938660 0.506989 0.600494
0.134186 0.160278 0.934723
0.365509 0.342621 0.936554
0.640350 0.559204 0.938660
0.902893 0.766052 0.940704
0.940704 0.766052 0.803864
0.007355 0.208221 0.934723
0.235718 0.387512 0.936554
0.506989 0.600494 0.938660
0.766052 0.803864 0.940704
0.942108 0.942108 0.942108
