static/luts/globe_test_01.CUBE
#Created by: Adobe Photoshop Export Color Lookup Plugin
TITLE "globe_test"
#LUT size
LUT_3D_SIZE 8
#data domain
#LUT data points
DOMAIN_MIN 0.000000 0.000000 0.000000
DOMAIN_MAX 0.903226 0.903226 0.903226
0.000000 0.000000 0.000000
0.125397 0.098450 0.000977
0.264709 0.207825 0.002075
0.419678 0.329498 0.003296
0.578583 0.454254 0.004547
0.725677 0.569733 0.005707
0.845123 0.663483 0.006653
0.934723 0.733856 0.007355
0.000977 0.125397 0.098450
0.027924 0.125397 0.000977
0.169098 0.236633 0.002075
0.326141 0.360352 0.003296
0.487152 0.487244 0.004547
0.636169 0.604675 0.005707
0.757202 0.700043 0.006653
0.847961 0.771576 0.007355
0.002075 0.264709 0.207825
0.027344 0.264709 0.108704
0.058960 0.264709 0.002075
0.215973 0.388458 0.003296
0.377045 0.515320 0.004547
0.526093 0.632751 0.005707
0.647095 0.728119 0.006653
0.737915 0.799683 0.007355
0.003296 0.419678 0.329498
0.028564 0.419678 0.230347
0.056671 0.419678 0.120178
0.093506 0.419678 0.003296
0.254517 0.546570 0.004547
0.403534 0.664001 0.005707
0.524597 0.759338 0.006653
0.615417 0.830902 0.007355
0.004547 0.578583 0.454254
0.029816 0.578583 0.355072
0.057922 0.578583 0.244965
0.089142 0.578583 0.122467
0.128906 0.578583 0.004547
0.277893 0.696014 0.005707
0.398987 0.791382 0.006653
0.489838 0.862946 0.007355
0.005707 0.725677 0.569733
0.031006 0.725677 0.470551
0.059082 0.725677 0.360474
0.090332 0.725677 0.237946
0.122345 0.725677 0.112305
0.161652 0.725677 0.005707
0.282684 0.821045 0.006653
0.373474 0.892578 0.007355
0.006653 0.845123 0.663483
0.031921 0.845123 0.564331
0.059998 0.845123 0.454224
0.091248 0.845123 0.331726
0.123291 0.845123 0.206116
0.152924 0.845123 0.089813
0.188263 0.845123 0.006653
0.279144 0.916656 0.007355
0.007355 0.934723 0.733856
0.032623 0.934723 0.634644
0.060730 0.934723 0.524567
0.091949 0.934723 0.402100
0.123993 0.934723 0.276520
0.153625 0.934723 0.160156
0.177704 0.934723 0.065796
0.208221 0.934723 0.007355
0.098450 0.000977 0.125397
0.125397 0.000977 0.027924
0.264709 0.108704 0.027344
0.419678 0.230347 0.028564
0.578583 0.355072 0.029816
0.725677 0.470551 0.031006
0.845123 0.564331 0.031921
0.934723 0.634644 0.032623
0.000977 0.027924 0.125397
0.126404 0.126404 0.126404
0.265717 0.235779 0.127502
0.420685 0.357422 0.128723
0.579590 0.482208 0.129974
0.726654 0.597656 0.131104
0.846100 0.691437 0.132080
0.935730 0.761810 0.132782
0.002075 0.169098 0.236633
0.127502 0.265717 0.235779
0.157440 0.265717 0.127502
0.314484 0.389435 0.128723
0.475525 0.516327 0.129974
0.624481 0.633728 0.131104
0.745544 0.729126 0.132080
0.836395 0.800659 0.132782
0.003296 0.326141 0.360352
0.128723 0.420685 0.357422
0.156799 0.420685 0.247314
0.191986 0.420685 0.128723
0.352966 0.547577 0.129974
0.502014 0.664978 0.131104
0.623016 0.760345 0.132080
0.713928 0.831909 0.132782
0.004547 0.487152 0.487244
0.129974 0.579590 0.482208
0.158051 0.579590 0.372070
0.189301 0.579590 0.249542
0.227356 0.579590 0.129974
0.376434 0.696991 0.131104
0.497467 0.792389 0.132080
0.588196 0.863953 0.132782
0.005707 0.636169 0.604675
0.131104 0.726654 0.597656
0.159210 0.726654 0.487488
0.190430 0.726654 0.365021
0.222473 0.726654 0.239441
0.260101 0.726654 0.131104
0.381195 0.822021 0.132080
0.471985 0.893585 0.132782
0.006653 0.757202 0.700043
0.132080 0.846100 0.691437
0.160156 0.846100 0.581268
0.191406 0.846100 0.458771
0.223419 0.846100 0.333221
0.253082 0.846100 0.216919
0.286743 0.846100 0.132080
0.377625 0.917664 0.132782
0.007355 0.847961 0.771576
0.132782 0.935730 0.761810
0.160858 0.935730 0.651703
0.192108 0.935730 0.529236
0.224121 0.935730 0.403473
0.253784 0.935730 0.287262
0.277863 0.935730 0.192902
0.306702 0.935730 0.132782
0.207825 0.002075 0.264709
0.236633 0.002075 0.169098
0.264709 0.002075 0.058960
0.419678 0.120178 0.056671
0.578583 0.244965 0.057922
0.725677 0.360474 0.059082
0.845123 0.454224 0.059998
0.934723 0.524567 0.060730
0.108704 0.027344 0.264709
0.235779 0.127502 0.265717
0.265717 0.127502 0.157440
0.420685 0.247314 0.156799
0.579590 0.372070 0.158051
0.726654 0.487488 0.159210
0.846100 0.581268 0.160156
0.935730 0.651703 0.160858
0.002075 0.058960 0.264709
0.127502 0.157440 0.265717
0.266815 0.266815 0.266815
0.421783 0.388458 0.268036
0.580688 0.513245 0.269287
0.727753 0.628693 0.270416
0.847198 0.722473 0.271393
0.936829 0.792847 0.272095
0.003296 0.215973 0.388458
0.128723 0.314484 0.389435
0.268036 0.421783 0.388458
0.301361 0.421783 0.268036
0.462372 0.548676 0.269287
0.611389 0.666077 0.270416
0.732391 0.761444 0.271393
0.823273 0.833008 0.272095
0.004547 0.377045 0.515320
0.129974 0.475525 0.516327
0.269287 0.580688 0.513245
0.300507 0.580688 0.390747
0.336731 0.580688 0.269287
0.485748 0.698090 0.270416
0.606812 0.793488 0.271393
0.697601 0.865051 0.272095
0.005707 0.526093 0.632751
0.131104 0.624481 0.633728
0.270416 0.727753 0.628693
0.301666 0.727753 0.506195
0.333710 0.727753 0.380554
0.369476 0.727753 0.270416
0.490540 0.823120 0.271393
0.581360 0.894684 0.272095
0.006653 0.647095 0.728119
0.132080 0.745544 0.729126
0.271393 0.847198 0.722473
0.302612 0.847198 0.599945
0.334656 0.847198 0.474365
0.364288 0.847198 0.358063
0.396118 0.847198 0.271393
0.486938 0.918762 0.272095
0.007355 0.737915 0.799683
0.132782 0.836395 0.800659
0.272095 0.936829 0.792847
0.303314 0.936829 0.670380
0.335358 0.936829 0.544678
0.365021 0.936829 0.428436
0.389099 0.936829 0.334015
0.416077 0.936829 0.272095
0.329498 0.003296 0.419678
0.360352 0.003296 0.326141
0.388458 0.003296 0.215973
0.419678 0.003296 0.093506
0.578583 0.122467 0.089142
0.725677 0.237946 0.090332
0.845123 0.331726 0.091248
0.934723 0.402100 0.091949
0.230347 0.028564 0.419678
0.357422 0.128723 0.420685
0.389435 0.128723 0.314484
0.420685 0.128723 0.191986
0.579590 0.249542 0.189301
0.726654 0.365021 0.190430
0.846100 0.458771 0.191406
0.935730 0.529236 0.192108
0.120178 0.056671 0.419678
0.247314 0.156799 0.420685
0.388458 0.268036 0.421783
0.421783 0.268036 0.301361
0.580688 0.390747 0.300507
0.727753 0.506195 0.301666
0.847198 0.599945 0.302612
0.936829 0.670380 0.303314
0.003296 0.093506 0.419678
0.128723 0.191986 0.420685
0.268036 0.301361 0.421783
0.423004 0.423004 0.423004
0.581909 0.547760 0.424255
0.728973 0.663208 0.425385
0.848419 0.757019 0.426361
0.938049 0.827362 0.427063
0.004547 0.254517 0.546570
0.129974 0.352966 0.547577
0.269287 0.462372 0.548676
0.424255 0.581909 0.547760
0.458405 0.581909 0.424255
0.607422 0.699310 0.425385
0.728455 0.794708 0.426361
0.819244 0.866272 0.427063
0.005707 0.403534 0.664001
0.131104 0.502014 0.664978
0.270416 0.611389 0.666077
0.425385 0.728973 0.663208
0.457428 0.728973 0.537598
0.491150 0.728973 0.425385
0.612213 0.824341 0.426361
0.703064 0.895905 0.427063
0.006653 0.524597 0.759338
0.132080 0.623016 0.760345
0.271393 0.732391 0.761444
0.426361 0.848419 0.757019
0.458374 0.848419 0.631378
0.488037 0.848419 0.515106
0.517761 0.848419 0.426361
0.608612 0.919983 0.427063
0.007355 0.615417 0.830902
0.132782 0.713928 0.831909
0.272095 0.823273 0.833008
0.427063 0.938049 0.827362
0.459076 0.938049 0.701721
0.488739 0.938049 0.585510
0.512817 0.938049 0.491058
0.537750 0.938049 0.427063
0.454254 0.004547 0.578583
0.487244 0.004547 0.487152
0.515320 0.004547 0.377045
0.546570 0.004547 0.254517
0.578583 0.004547 0.128906
0.725677 0.112305 0.122345
0.845123 0.206116 0.123291
0.934723 0.276520 0.123993
0.355072 0.029816 0.578583
0.482208 0.129974 0.579590
0.516327 0.129974 0.475525
0.547577 0.129974 0.352966
0.579590 0.129974 0.227356
0.726654 0.239441 0.222473
0.846100 0.333221 0.223419
0.935730 0.403473 0.224121
0.244965 0.057922 0.578583
0.372070 0.158051 0.579590
0.513245 0.269287 0.580688
0.548676 0.269287 0.462372
0.580688 0.269287 0.336731
0.727753 0.380554 0.333710
0.847198 0.474365 0.334656
0.936829 0.544678 0.335358
0.122467 0.089142 0.578583
0.249542 0.189301 0.579590
0.390747 0.300507 0.580688
0.547760 0.424255 0.581909
0.581909 0.424255 0.458405
0.728973 0.537598 0.457428
0.848419 0.631378 0.458374
0.938049 0.701721 0.459076
0.004547 0.128906 0.578583
0.129974 0.227356 0.579590
0.269287 0.336731 0.580688
0.424255 0.458405 0.581909
0.583160 0.583160 0.583160
0.730225 0.698608 0.584320
0.849670 0.792419 0.585266
0.939301 0.862762 0.585968
0.005707 0.277893 0.696014
0.131104 0.376434 0.696991
0.270416 0.485748 0.698090
0.425385 0.607422 0.699310
0.584320 0.730225 0.698608
0.615906 0.730225 0.584320
0.736969 0.825592 0.585266
0.827789 0.897156 0.585968
0.006653 0.398987 0.791382
0.132080 0.497467 0.792389
0.271393 0.606812 0.793488
0.426361 0.728455 0.794708
0.585266 0.849670 0.792419
0.614899 0.849670 0.676147
0.642517 0.849670 0.585266
0.733368 0.921234 0.585968
0.007355 0.489838 0.862946
0.132782 0.588196 0.863953
0.272095 0.697601 0.865051
0.427063 0.819244 0.866272
0.585968 0.939301 0.862762
0.615601 0.939301 0.746552
0.639709 0.939301 0.652069
0.662506 0.939301 0.585968
0.569733 0.005707 0.725677
0.604675 0.005707 0.636169
0.632751 0.005707 0.526093
0.664001 0.005707 0.403534
0.696014 0.005707 0.277893
0.725677 0.005707 0.161652
0.845123 0.089813 0.152924
0.934723 0.160156 0.153625
0.470551 0.031006 0.725677
0.597656 0.131104 0.726654
0.633728 0.131104 0.624481
0.664978 0.131104 0.502014
0.696991 0.131104 0.376434
0.726654 0.131104 0.260101
0.846100 0.216919 0.253082
0.935730 0.287262 0.253784
0.360474 0.059082 0.725677
0.487488 0.159210 0.726654
0.628693 0.270416 0.727753
0.666077 0.270416 0.611389
0.698090 0.270416 0.485748
0.727753 0.270416 0.369476
0.847198 0.358063 0.364288
0.936829 0.428436 0.365021
0.237946 0.090332 0.725677
0.365021 0.190430 0.726654
0.506195 0.301666 0.727753
0.663208 0.425385 0.728973
0.699310 0.425385 0.607422
0.728973 0.425385 0.491150
0.848419 0.515106 0.488037
0.938049 0.585510 0.488739
0.112305 0.122345 0.725677
0.239441 0.222473 0.726654
0.380554 0.333710 0.727753
0.537598 0.457428 0.728973
0.698608 0.584320 0.730225
0.730225 0.584320 0.615906
0.849670 0.676147 0.614899
0.939301 0.746552 0.615601
0.005707 0.161652 0.725677
0.131104 0.260101 0.726654
0.270416 0.369476 0.727753
0.425385 0.491150 0.728973
0.584320 0.615906 0.730225
0.731384 0.731384 0.731384
0.850830 0.825165 0.732300
0.940460 0.895508 0.733032
0.006653 0.282684 0.821045
0.132080 0.381195 0.822021
0.271393 0.490540 0.823120
0.426361 0.612213 0.824341
0.585266 0.736969 0.825592
0.732300 0.850830 0.825165
0.757965 0.850830 0.732300
0.848785 0.922394 0.733032
0.007355 0.373474 0.892578
0.132782 0.471985 0.893585
0.272095 0.581360 0.894684
0.427063 0.703064 0.895905
0.585968 0.827789 0.897156
0.733032 0.940460 0.895508
0.757111 0.940460 0.801086
0.777954 0.940460 0.733032
0.663483 0.006653 0.845123
0.700043 0.006653 0.757202
0.728119 0.006653 0.647095
0.759338 0.006653 0.524597
0.791382 0.006653 0.398987
0.821045 0.006653 0.282684
0.845123 0.006653 0.188263
0.934723 0.065796 0.177704
0.564331 0.031921 0.845123
0.691437 0.132080 0.846100
0.729126 0.132080 0.745544
0.760345 0.132080 0.623016
0.792389 0.132080 0.497467
0.822021 0.132080 0.381195
0.846100 0.132080 0.286743
0.935730 0.192902 0.277863
0.454224 0.059998 0.845123
0.581268 0.160156 0.846100
0.722473 0.271393 0.847198
0.761444 0.271393 0.732391
0.793488 0.271393 0.606812
0.823120 0.271393 0.490540
0.847198 0.271393 0.396118
0.936829 0.334015 0.389099
0.331726 0.091248 0.845123
0.458771 0.191406 0.846100
0.599945 0.302612 0.847198
0.757019 0.426361 0.848419
0.794708 0.426361 0.728455
0.824341 0.426361 0.612213
0.848419 0.426361 0.517761
0.938049 0.491058 0.512817
0.206116 0.123291 0.845123
0.333221 0.223419 0.846100
0.474365 0.334656 0.847198
0.631378 0.458374 0.848419
0.792419 0.585266 0.849670
0.825592 0.585266 0.736969
0.849670 0.585266 0.642517
0.939301 0.652069 0.639709
0.089813 0.152924 0.845123
0.216919 0.253082 0.846100
0.358063 0.364288 0.847198
0.515106 0.488037 0.848419
0.676147 0.614899 0.849670
0.825165 0.732300 0.850830
0.850830 0.732300 0.757965
0.940460 0.801086 0.757111
0.006653 0.188263 0.845123
0.132080 0.286743 0.846100
0.271393 0.396118 0.847198
0.426361 0.517761 0.848419
0.585266 0.642517 0.849670
0.732300 0.757965 0.850830
0.851776 0.851776 0.851776
0.941406 0.922150 0.852478
0.007355 0.279144 0.916656
0.132782 0.377625 0.917664
0.272095 0.486938 0.918762
0.427063 0.608612 0.919983
0.585968 0.733368 0.921234
0.733032 0.848785 0.922394
0.852478 0.941406 0.922150
0.871735 0.941406 0.852478
0.733856 0.007355 0.934723
0.771576 0.007355 0.847961
0.799683 0.007355 0.737915
0.830902 0.007355 0.615417
0.862946 0.007355 0.489838
0.892578 0.007355 0.373474
0.916656 0.007355 0.279144
0.934723 0.007355 0.208221
0.634644 0.032623 0.934723
0.761810 0.132782 0.935730
0.800659 0.132782 0.836395
0.831909 0.132782 0.713928
0.863953 0.132782 0.588196
0.893585 0.132782 0.471985
0.917664 0.132782 0.377625
0.935730 0.132782 0.306702
0.524567 0.060730 0.934723
0.651703 0.160858 0.935730
0.792847 0.272095 0.936829
0.833008 0.272095 0.823273
0.865051 0.272095 0.697601
0.894684 0.272095 0.581360
0.918762 0.272095 0.486938
0.936829 0.272095 0.416077
0.402100 0.091949 0.934723
0.529236 0.192108 0.935730
0.670380 0.303314 0.936829
0.827362 0.427063 0.938049
0.866272 0.427063 0.819244
0.895905 0.427063 0.703064
0.919983 0.427063 0.608612
0.938049 0.427063 0.537750
0.276520 0.123993 0.934723
0.403473 0.224121 0.935730
0.544678 0.335358 0.936829
0.701721 0.459076 0.938049
0.862762 0.585968 0.939301
0.897156 0.585968 0.827789
0.921234 0.585968 0.733368
0.939301 0.585968 0.662506
0.160156 0.153625 0.934723
0.287262 0.253784 0.935730
0.428436 0.365021 0.936829
0.585510 0.488739 0.938049
0.746552 0.615601 0.939301
0.895508 0.733032 0.940460
0.922394 0.733032 0.848785
0.940460 0.733032 0.777954
0.065796 0.177704 0.934723
0.192902 0.277863 0.935730
0.334015 0.389099 0.936829
0.491058 0.512817 0.938049
0.652069 0.639709 0.939301
0.801086 0.757111 0.940460
0.922150 0.852478 0.941406
0.941406 0.852478 0.871735
0.007355 0.208221 0.934723
0.132782 0.306702 0.935730
0.272095 0.416077 0.936829
0.427063 0.537750 0.938049
0.585968 0.662506 0.939301
0.733032 0.777954 0.940460
0.852478 0.871735 0.941406
0.942108 0.942108 0.942108
