static/luts/s1_lut.3DL
#Created by: Adobe Photoshop Export Color Lookup Plugin
#Description: Globe_Lut_Test_2.psd
0 33 66 99 132 165 198 231 264 297 330 363 396 429 462 495 528 561 594 627 660 693 726 759 792 825 858 891 924 957 990 1023
38 17 16
41 18 88
41 21 173
43 22 275
46 22 403
63 14 532
67 12 663
89 0 775
103 0 839
120 0 893
140 0 947
162 0 999
183 0 1067
205 0 1132
226 0 1201
247 0 1273
267 0 1346
290 0 1414
317 0 1491
343 0 1576
372 0 1668
398 0 1752
425 0 1835
451 0 1914
475 0 1998
502 0 2079
527 0 2162
553 0 2244
580 0 2326
607 0 2409
634 0 2495
662 0 2578
44 99 21
45 99 91
47 101 166
53 100 261
52 102 363
61 99 488
71 95 612
85 87 736
98 80 849
117 69 960
138 57 1071
162 44 1180
187 31 1291
210 21 1389
240 9 1487
265 0 1582
291 0 1640
320 0 1694
343 0 1761
373 0 1825
399 0 1906
434 0 1987
467 0 2058
495 0 2143
522 0 2226
548 0 2312
576 0 2393
604 0 2477
630 0 2562
658 0 2646
687 0 2731
715 0 2814
53 192 24
54 187 95
58 185 169
58 187 256
62 186 356
68 185 466
72 185 586
83 179 709
98 171 831
113 164 942
132 154 1051
154 141 1163
186 123 1276
206 112 1383
233 97 1483
257 86 1583
285 74 1680
310 67 1776
336 58 1873
366 48 1972
393 42 2070
427 34 2174
466 27 2278
502 21 2374
533 19 2470
570 12 2567
600 10 2661
638 3 2760
670 0 2853
702 0 2931
735 0 3011
769 0 3086
59 300 28
60 289 97
62 284 172
67 280 259
63 283 360
67 283 467
78 279 586
79 279 710
90 274 831
107 266 942
128 256 1053
152 245 1163
177 231 1276
198 219 1384
227 203 1490
246 192 1586
272 179 1685
297 164 1782
322 154 1879
347 143 1977
379 129 2077
412 117 2181
448 108 2283
487 99 2385
521 96 2481
557 92 2579
596 86 2678
626 84 2773
660 82 2869
697 78 2967
731 76 3063
764 74 3159
61 417 29
64 405 101
67 398 176
67 396 264
63 399 367
67 399 475
69 400 594
87 398 716
95 396 839
117 388 954
131 383 1065
156 373 1174
177 364 1288
205 351 1399
229 338 1506
252 327 1603
273 317 1700
295 304 1797
317 294 1893
344 281 1990
370 269 2088
391 258 2186
421 248 2288
452 241 2386
490 238 2483
526 236 2578
564 235 2675
600 234 2771
632 234 2866
670 232 2963
703 233 3058
737 232 3153
64 534 27
65 523 100
64 517 177
67 514 267
67 515 371
70 517 479
71 519 599
86 519 723
102 518 848
118 515 964
143 507 1075
167 498 1185
188 491 1299
215 480 1412
237 471 1522
259 461 1620
280 452 1718
300 442 1815
325 431 1910
344 422 2007
367 411 2102
388 400 2199
411 389 2298
436 381 2396
466 377 2490
503 375 2584
538 376 2679
578 377 2775
613 379 2871
650 381 2967
685 383 3061
719 384 3156
59 655 24
66 641 96
62 636 177
64 632 269
62 634 374
67 636 484
79 638 604
92 639 729
111 637 852
129 635 972
150 630 1083
175 622 1194
196 617 1308
219 609 1422
246 599 1535
268 590 1634
287 582 1732
307 574 1829
329 565 1925
352 554 2021
373 545 2116
395 535 2213
415 526 2310
439 518 2410
460 511 2501
485 508 2591
514 505 2683
551 508 2778
592 511 2874
632 515 2971
668 519 3067
705 522 3162
56 772 20
60 762 95
68 753 174
62 754 271
69 755 377
72 758 489
87 760 609
102 762 735
119 762 859
137 760 980
160 755 1092
185 748 1202
206 743 1317
232 735 1431
255 728 1545
275 720 1647
297 712 1746
317 704 1844
338 696 1940
358 687 2036
380 679 2131
400 671 2227
422 661 2324
445 654 2424
466 648 2518
485 642 2606
508 638 2695
531 635 2783
567 638 2878
607 641 2974
649 648 3071
687 653 3168
57 888 18
61 880 88
65 875 170
69 874 269
74 876 379
86 878 490
95 883 613
113 884 738
134 883 863
154 881 984
174 878 1099
193 874 1211
215 869 1325
239 863 1440
264 856 1554
285 849 1658
306 842 1759
325 835 1857
348 826 1953
367 819 2050
389 811 2145
410 802 2241
430 795 2338
451 790 2439
473 784 2533
493 778 2624
512 774 2711
533 769 2798
550 765 2885
585 768 2978
620 771 3072
665 779 3171
68 1006 17
73 1000 79
76 996 163
80 994 267
87 995 379
100 996 492
110 1001 615
122 1005 742
141 1006 868
162 1005 991
187 999 1104
204 998 1217
228 993 1331
249 988 1447
273 983 1562
294 977 1669
314 971 1771
335 964 1869
357 956 1966
376 950 2063
397 943 2159
418 935 2255
437 929 2352
460 924 2453
481 919 2549
502 914 2641
521 911 2729
541 906 2816
559 903 2903
578 900 2989
603 898 3078
629 899 3168
82 1122 15
87 1121 68
91 1117 156
93 1116 263
99 1117 377
110 1119 493
122 1123 617
139 1125 744
155 1128 871
176 1127 994
195 1125 1111
214 1123 1224
239 1118 1338
261 1114 1453
283 1109 1569
304 1104 1678
327 1098 1780
346 1091 1880
366 1085 1978
387 1079 2075
405 1073 2171
426 1066 2268
448 1059 2365
469 1056 2465
490 1052 2564
510 1048 2657
528 1044 2745
547 1041 2832
567 1037 2918
586 1034 3005
605 1030 3091
624 1028 3178
90 1240 15
98 1241 57
106 1238 143
110 1236 257
112 1240 374
122 1242 493
136 1245 618
152 1248 746
170 1250 873
192 1249 998
209 1249 1115
230 1247 1229
251 1244 1344
273 1240 1460
296 1236 1576
318 1231 1686
335 1227 1791
358 1220 1890
377 1214 1988
395 1209 2086
415 1202 2183
435 1196 2279
457 1190 2376
478 1186 2477
499 1183 2576
520 1179 2672
538 1176 2760
557 1173 2847
575 1169 2934
595 1166 3020
612 1163 3106
632 1160 3193
104 1350 12
117 1353 44
119 1353 134
124 1352 250
129 1356 371
140 1358 492
152 1363 618
167 1368 747
185 1371 876
206 1373 1002
225 1373 1119
243 1372 1233
264 1370 1349
284 1369 1466
307 1365 1582
327 1362 1695
349 1356 1800
366 1351 1900
386 1345 1999
407 1339 2097
427 1332 2193
446 1327 2291
466 1322 2389
488 1319 2489
509 1316 2590
529 1313 2687
549 1309 2775
567 1306 2862
585 1303 2949
603 1300 3035
623 1297 3121
641 1295 3207
117 1460 10
127 1468 33
137 1466 123
141 1467 241
147 1470 366
154 1475 491
169 1479 618
182 1485 748
199 1490 877
219 1492 1004
240 1491 1121
255 1493 1237
277 1491 1353
299 1489 1469
319 1488 1587
340 1485 1701
359 1481 1808
379 1476 1908
398 1471 2007
417 1466 2105
438 1460 2202
457 1456 2301
476 1453 2400
498 1449 2500
518 1448 2601
539 1445 2700
558 1442 2789
577 1440 2876
596 1436 2963
614 1434 3050
632 1432 3136
650 1430 3222
136 1568 6
143 1580 18
150 1582 109
154 1582 233
163 1584 361
173 1588 487
185 1593 617
201 1599 747
216 1604 877
235 1607 1005
255 1607 1123
271 1608 1238
290 1608 1355
311 1607 1472
329 1607 1590
353 1604 1705
372 1601 1813
391 1597 1914
410 1593 2014
428 1589 2113
448 1584 2211
466 1582 2310
487 1580 2409
509 1578 2509
529 1577 2611
550 1575 2710
568 1574 2801
587 1572 2889
605 1570 2977
624 1567 3063
642 1566 3149
661 1564 3236
149 1680 4
165 1690 13
172 1694 91
178 1693 220
184 1697 354
190 1702 484
203 1707 615
217 1713 747
232 1719 878
249 1723 1006
265 1725 1126
283 1725 1241
303 1724 1357
322 1724 1475
342 1724 1592
365 1722 1710
383 1720 1819
401 1716 1919
421 1712 2020
439 1709 2119
458 1704 2217
478 1703 2317
497 1702 2417
518 1700 2517
539 1699 2618
559 1698 2718
578 1697 2811
597 1694 2900
614 1693 2987
633 1691 3073
651 1689 3160
669 1688 3246
170 1784 0
183 1797 9
192 1804 75
195 1806 209
201 1810 348
209 1815 481
218 1822 614
230 1830 748
249 1833 878
265 1838 1007
281 1840 1126
300 1840 1242
318 1841 1359
335 1842 1477
355 1841 1595
375 1840 1713
395 1838 1823
413 1834 1924
432 1831 2024
451 1828 2125
469 1825 2223
490 1823 2323
509 1823 2423
529 1822 2524
548 1822 2625
569 1820 2725
588 1819 2820
606 1818 2909
625 1815 2996
642 1814 3083
660 1813 3170
678 1811 3256
185 1886 0
197 1902 7
209 1913 58
213 1915 196
217 1920 343
225 1927 479
237 1934 612
249 1942 747
266 1948 878
283 1953 1007
298 1955 1126
313 1957 1243
330 1958 1360
349 1958 1479
368 1958 1597
389 1957 1716
407 1956 1827
425 1953 1929
444 1949 2029
462 1947 2129
482 1945 2230
500 1945 2330
518 1945 2431
539 1944 2531
559 1943 2632
578 1943 2733
598 1942 2829
617 1940 2919
635 1938 3006
652 1937 3092
670 1935 3179
688 1934 3265
209 1983 0
217 2003 3
228 2017 44
230 2020 189
238 2023 337
241 2031 477
254 2038 611
268 2046 746
282 2053 878
295 2060 1007
311 2063 1127
327 2065 1244
346 2067 1360
363 2069 1479
382 2070 1598
402 2071 1717
420 2071 1829
438 2069 1932
456 2069 2034
474 2067 2135
493 2066 2236
513 2066 2336
530 2066 2437
550 2066 2538
569 2066 2639
589 2065 2739
609 2064 2837
628 2063 2928
645 2061 3015
662 2060 3101
681 2058 3188
698 2057 3274
228 2083 0
232 2106 1
247 2122 32
250 2123 179
253 2128 334
263 2133 475
270 2142 611
285 2149 745
295 2158 879
311 2164 1007
328 2167 1126
340 2172 1244
357 2175 1362
375 2177 1480
394 2179 1599
414 2180 1718
432 2182 1831
450 2181 1935
468 2182 2038
487 2183 2139
504 2183 2241
524 2184 2342
542 2184 2442
561 2185 2543
580 2185 2644
600 2185 2745
621 2184 2844
639 2183 2936
655 2182 3023
673 2181 3110
691 2180 3196
707 2179 3282
248 2182 0
255 2206 0
268 2225 16
267 2229 171
272 2232 329
279 2238 473
288 2246 610
300 2254 746
311 2262 879
326 2268 1006
340 2273 1127
356 2275 1243
372 2278 1361
388 2282 1481
407 2284 1599
425 2286 1719
444 2288 1832
461 2289 1937
479 2291 2041
499 2292 2143
517 2294 2244
535 2295 2345
553 2297 2446
572 2298 2547
591 2299 2648
610 2300 2750
630 2300 2851
649 2300 2942
666 2300 3030
683 2300 3117
700 2299 3203
718 2299 3290
267 2283 0
274 2308 0
286 2331 5
289 2333 163
290 2337 327
295 2343 472
306 2350 610
315 2359 747
328 2366 880
340 2372 1007
356 2376 1126
370 2380 1243
387 2382 1361
403 2386 1480
420 2389 1600
438 2393 1720
457 2396 1834
474 2397 1940
493 2399 2043
509 2402 2146
529 2403 2248
545 2405 2349
564 2406 2450
582 2408 2551
601 2409 2652
621 2410 2753
640 2411 2855
658 2411 2948
676 2411 3035
693 2410 3122
710 2411 3209
727 2411 3295
288 2383 0
292 2410 0
305 2434 2
307 2439 156
307 2442 325
313 2448 472
322 2455 610
332 2463 748
346 2469 880
357 2476 1007
370 2480 1126
385 2484 1243
399 2488 1362
417 2491 1481
434 2495 1600
452 2500 1722
470 2504 1836
487 2507 1943
504 2509 2047
522 2511 2149
539 2513 2251
558 2514 2352
575 2516 2453
594 2517 2554
613 2518 2655
632 2519 2756
650 2520 2858
669 2521 2952
686 2521 3041
703 2520 3127
720 2520 3214
736 2521 3301
308 2484 0
314 2511 0
321 2539 0
325 2545 151
325 2547 322
331 2552 470
339 2559 610
350 2566 749
362 2574 881
373 2580 1006
386 2584 1126
399 2588 1243
416 2593 1362
431 2598 1482
448 2604 1602
465 2609 1724
484 2613 1838
500 2616 1946
518 2618 2049
534 2620 2152
551 2622 2254
569 2623 2355
587 2625 2456
605 2626 2557
623 2627 2658
642 2628 2759
661 2630 2861
678 2630 2956
696 2631 3046
712 2631 3133
729 2630 3219
746 2630 3305
328 2582 0
336 2612 0
345 2640 0
343 2651 144
346 2651 320
349 2657 470
356 2664 612
367 2672 750
377 2680 883
391 2685 1006
401 2692 1126
414 2696 1244
431 2701 1363
445 2707 1484
461 2713 1604
479 2719 1726
497 2723 1840
515 2725 1948
530 2728 2052
548 2729 2155
564 2732 2257
581 2733 2358
599 2734 2459
617 2736 2560
634 2737 2661
653 2738 2762
672 2739 2864
689 2740 2960
707 2740 3050
723 2740 3137
740 2740 3224
756 2740 3310
347 2680 0
354 2713 0
362 2745 0
363 2754 141
364 2755 319
368 2761 470
374 2769 612
383 2778 752
394 2786 885
408 2792 1007
417 2799 1127
431 2805 1245
446 2810 1365
461 2816 1485
477 2823 1606
495 2827 1727
511 2832 1843
528 2835 1951
544 2837 2055
560 2839 2158
576 2841 2260
593 2843 2361
611 2844 2462
627 2845 2563
647 2846 2664
664 2848 2765
683 2849 2867
700 2850 2963
717 2850 3055
733 2850 3142
750 2850 3228
766 2850 3315
366 2777 0
373 2812 0
381 2844 0
383 2854 139
381 2857 321
385 2862 472
393 2871 614
402 2881 754
412 2890 887
424 2897 1007
434 2905 1127
447 2912 1246
463 2919 1366
477 2926 1487
493 2931 1608
510 2937 1729
525 2942 1845
541 2945 1953
557 2947 2057
574 2949 2160
589 2950 2263
606 2952 2364
623 2953 2465
639 2955 2566
659 2956 2667
677 2957 2768
694 2959 2870
711 2960 2967
729 2960 3059
745 2960 3146
761 2960 3233
778 2960 3319
387 2876 0
394 2911 0
404 2944 0
401 2955 139
399 2957 322
403 2963 474
409 2972 618
419 2981 756
428 2991 890
439 2998 1009
450 3006 1129
464 3012 1247
475 3021 1368
492 3028 1488
507 3034 1609
523 3041 1731
538 3047 1847
555 3050 1955
571 3053 2059
587 3055 2162
602 3058 2265
619 3061 2366
636 3062 2467
652 3064 2568
669 3066 2670
688 3067 2771
705 3069 2873
722 3070 2970
740 3070 3064
755 3070 3150
771 3070 3237
787 3070 3324
408 2978 0
414 3013 0
423 3045 0
417 3057 140
