static/luts/s3_lut.3DL
#Created by: Adobe Photoshop Export Color Lookup Plugin
#Description: Globe_Lut_Test_2.psd
0 33 66 99 132 165 198 231 264 297 330 363 396 429 462 495 528 561 594 627 660 693 726 759 792 825 858 891 924 957 990 1023
277 172 185
289 174 268
300 175 357
311 175 447
325 174 538
339 174 627
353 173 714
369 171 802
386 169 890
402 167 977
420 164 1065
438 161 1151
455 158 1238
474 155 1325
493 151 1412
509 149 1496
525 148 1579
541 146 1663
557 145 1745
573 143 1828
589 142 1910
606 140 1993
622 138 2075
638 137 2157
655 135 2239
671 134 2321
687 132 2402
700 133 2478
713 135 2554
725 136 2630
738 137 2705
751 138 2781
297 273 196
308 274 280
319 276 368
330 276 460
344 275 550
357 275 639
372 274 728
387 272 815
404 270 903
419 268 991
436 266 1077
455 263 1164
472 260 1251
491 257 1339
509 253 1425
527 250 1511
548 246 1598
567 242 1685
587 238 1772
608 233 1859
626 230 1944
642 229 2026
658 227 2108
674 226 2190
690 224 2272
707 222 2354
723 221 2436
739 219 2518
755 217 2599
772 216 2680
788 214 2761
804 213 2842
316 374 205
326 377 288
336 378 377
347 379 469
361 378 560
374 377 649
387 377 737
403 376 825
417 374 912
434 372 999
450 371 1086
467 368 1172
484 365 1259
502 363 1345
520 360 1432
538 357 1518
557 353 1604
577 349 1691
597 345 1778
616 341 1865
637 336 1952
658 331 2039
679 326 2126
701 321 2214
722 316 2301
743 311 2387
759 309 2469
775 308 2551
791 306 2632
808 305 2713
824 303 2795
840 301 2876
336 476 212
345 478 297
355 480 386
366 480 478
379 480 570
392 479 658
405 479 746
419 478 834
434 477 922
449 476 1009
465 474 1095
481 472 1181
498 470 1267
514 468 1353
531 465 1439
549 463 1524
567 460 1610
585 457 1696
604 453 1782
622 450 1867
641 447 1953
661 443 2039
682 438 2126
702 434 2212
724 428 2299
745 423 2387
767 417 2474
790 411 2562
812 405 2651
836 398 2739
859 392 2827
876 390 2909
355 577 219
364 580 304
375 581 393
386 581 487
397 582 578
409 581 668
423 581 756
437 580 844
451 579 932
466 578 1019
481 577 1105
497 575 1191
512 573 1277
530 571 1363
545 570 1448
562 567 1533
580 565 1618
597 562 1703
615 560 1788
632 557 1873
650 554 1958
669 550 2043
688 547 2129
707 544 2214
726 540 2299
746 536 2384
766 532 2470
787 527 2557
808 522 2643
830 516 2730
852 511 2818
876 504 2907
376 681 225
386 683 310
396 684 400
405 685 494
417 685 586
429 685 677
442 685 765
455 684 854
469 683 941
483 683 1028
498 681 1114
513 680 1200
529 679 1286
545 677 1372
560 675 1457
577 673 1542
594 671 1627
611 669 1712
628 667 1797
645 664 1881
663 662 1966
680 659 2050
699 656 2135
717 653 2220
735 650 2304
754 647 2388
773 643 2473
792 640 2558
811 636 2643
831 631 2728
851 627 2814
872 623 2899
397 786 230
407 788 315
416 790 406
426 790 500
436 791 594
449 790 685
461 790 774
474 790 863
487 789 950
501 789 1038
516 788 1124
530 787 1210
545 785 1296
561 784 1382
577 782 1467
593 780 1551
609 779 1636
626 777 1721
642 775 1806
659 772 1890
676 770 1974
693 768 2058
711 765 2143
729 763 2227
746 760 2311
764 757 2395
783 754 2479
801 751 2563
819 748 2647
838 744 2732
857 741 2816
876 737 2901
419 890 238
428 894 318
438 895 409
447 896 505
457 896 600
469 896 692
481 896 782
493 896 871
506 895 959
520 894 1047
534 894 1134
549 893 1220
563 891 1306
578 890 1392
593 889 1476
609 887 1561
625 886 1646
641 884 1731
657 882 1815
674 880 1899
690 878 1983
707 876 2067
724 874 2152
742 871 2235
759 869 2319
777 866 2403
795 863 2487
812 861 2570
830 858 2654
848 855 2738
867 852 2822
885 849 2906
440 995 248
450 999 321
459 1000 413
468 1001 509
478 1001 606
489 1001 699
500 1001 789
513 1001 879
525 1001 968
539 1000 1056
553 999 1142
567 998 1229
581 998 1315
596 996 1401
611 995 1486
626 994 1571
642 992 1656
658 991 1740
674 989 1825
690 987 1909
706 985 1993
723 983 2077
740 981 2161
756 979 2245
773 977 2328
790 975 2412
808 972 2495
825 970 2579
843 967 2662
860 965 2745
878 962 2829
896 959 2913
461 1099 257
473 1104 325
482 1106 415
491 1106 512
500 1106 610
510 1106 705
521 1107 796
533 1106 886
545 1106 976
558 1106 1064
572 1105 1151
585 1105 1238
600 1104 1324
614 1103 1410
629 1101 1496
644 1100 1581
659 1099 1666
675 1097 1750
690 1096 1835
706 1094 1919
722 1093 2003
739 1091 2087
755 1089 2171
771 1087 2254
788 1085 2337
805 1083 2421
822 1081 2504
839 1078 2588
856 1076 2671
874 1073 2754
891 1071 2837
909 1068 2921
483 1206 267
494 1211 334
504 1214 415
513 1214 512
521 1214 613
531 1214 710
542 1214 802
553 1214 893
566 1214 983
578 1213 1072
591 1213 1159
605 1212 1246
619 1211 1333
633 1211 1419
647 1210 1505
662 1209 1590
677 1208 1675
692 1206 1760
707 1205 1844
723 1203 1928
739 1201 2012
755 1200 2096
771 1198 2180
788 1196 2264
804 1195 2347
820 1193 2430
837 1191 2514
854 1188 2597
871 1186 2680
887 1184 2763
905 1182 2846
922 1179 2929
506 1312 276
516 1317 344
527 1321 414
535 1322 511
544 1322 615
553 1322 713
563 1321 807
574 1321 899
586 1321 990
598 1321 1079
611 1321 1167
624 1320 1254
638 1319 1341
652 1319 1428
666 1318 1514
681 1317 1599
695 1316 1684
710 1315 1769
726 1313 1854
741 1312 1938
756 1310 2022
772 1309 2106
788 1307 2190
804 1306 2273
820 1304 2357
836 1302 2440
853 1300 2523
869 1298 2606
886 1296 2689
903 1294 2772
919 1292 2855
936 1290 2938
528 1418 285
538 1423 353
550 1428 421
559 1430 509
566 1430 614
575 1429 715
585 1429 811
596 1429 904
607 1429 996
619 1429 1086
631 1428 1174
644 1428 1262
657 1427 1349
671 1426 1436
685 1426 1522
699 1425 1608
714 1424 1693
728 1423 1778
743 1422 1863
758 1420 1947
774 1419 2032
789 1418 2116
805 1416 2200
821 1414 2283
836 1413 2366
852 1411 2450
869 1410 2533
885 1408 2616
901 1406 2699
918 1404 2782
934 1402 2864
951 1400 2948
551 1524 294
561 1529 362
571 1535 430
583 1538 506
590 1537 611
598 1537 716
607 1536 814
617 1536 909
628 1536 1001
640 1536 1092
652 1536 1181
665 1535 1269
678 1535 1357
691 1534 1444
704 1534 1531
718 1533 1616
732 1532 1702
747 1531 1787
761 1530 1872
777 1529 1957
792 1528 2041
807 1526 2125
822 1525 2209
838 1523 2293
853 1522 2376
869 1520 2459
885 1519 2543
901 1517 2626
917 1515 2708
934 1513 2791
950 1511 2874
967 1509 2957
573 1631 304
584 1637 371
594 1642 439
606 1646 507
614 1647 606
621 1646 715
630 1645 815
640 1645 912
650 1645 1006
662 1644 1098
673 1644 1187
685 1644 1276
698 1644 1364
711 1643 1452
725 1642 1539
738 1642 1625
752 1641 1711
766 1640 1796
780 1639 1881
795 1638 1966
810 1637 2050
825 1636 2134
840 1634 2218
856 1633 2302
871 1632 2385
886 1630 2469
902 1628 2552
918 1627 2635
934 1625 2718
950 1623 2801
966 1622 2884
983 1620 2967
596 1739 313
606 1744 380
617 1749 448
628 1754 516
638 1757 601
645 1755 710
653 1754 816
662 1754 914
672 1754 1009
683 1753 1102
694 1753 1193
706 1753 1282
719 1753 1371
731 1752 1459
744 1752 1546
758 1751 1632
771 1750 1719
786 1749 1804
799 1749 1890
814 1748 1975
829 1747 2059
843 1745 2143
858 1744 2228
873 1743 2311
889 1742 2395
904 1740 2478
920 1739 2562
935 1737 2645
951 1736 2728
967 1734 2811
983 1732 2893
999 1731 2976
619 1847 322
629 1852 390
639 1857 457
650 1862 525
663 1866 593
669 1865 703
676 1864 813
685 1863 915
695 1863 1012
705 1862 1106
716 1862 1198
728 1862 1288
740 1862 1377
752 1861 1466
765 1861 1553
778 1860 1640
791 1860 1727
805 1859 1813
819 1858 1898
833 1857 1983
847 1856 2068
862 1855 2152
877 1854 2237
892 1853 2320
907 1852 2404
922 1850 2488
937 1849 2571
952 1848 2654
968 1846 2737
984 1845 2820
1000 1843 2903
1016 1842 2986
642 1954 331
652 1959 399
663 1965 466
674 1970 534
685 1974 601
694 1975 695
700 1974 809
708 1972 914
717 1972 1014
728 1972 1109
738 1971 1202
749 1971 1293
761 1971 1383
773 1970 1472
786 1970 1560
798 1970 1647
812 1969 1734
825 1968 1820
839 1968 1906
853 1967 1991
867 1966 2076
881 1965 2161
895 1964 2245
910 1963 2329
925 1962 2413
940 1960 2497
955 1959 2580
970 1958 2664
986 1957 2747
1001 1955 2830
1017 1954 2913
1032 1952 2996
665 2062 340
675 2067 408
686 2073 475
697 2078 543
708 2082 610
719 2086 685
725 2083 802
731 2082 912
740 2081 1014
750 2081 1112
760 2081 1205
771 2080 1297
783 2080 1388
794 2080 1478
806 2079 1566
819 2079 1654
832 2078 1741
845 2078 1828
859 2077 1914
872 2076 1999
886 2076 2084
900 2075 2169
915 2074 2254
929 2073 2338
944 2072 2422
958 2071 2506
974 2069 2589
989 2068 2673
1004 2067 2756
1019 2065 2839
1034 2064 2922
1050 2063 3005
689 2171 349
699 2176 416
709 2181 484
719 2186 551
731 2191 619
742 2196 685
750 2195 790
756 2193 907
764 2192 1013
773 2191 1112
783 2191 1208
793 2191 1301
804 2190 1393
816 2190 1483
828 2190 1572
840 2189 1660
853 2189 1748
865 2188 1835
879 2188 1921
892 2187 2007
906 2186 2092
920 2185 2177
934 2185 2262
948 2184 2347
962 2183 2431
977 2181 2515
992 2180 2598
1007 2179 2682
1022 2178 2765
1037 2177 2848
1052 2176 2931
1067 2174 3015
713 2279 358
722 2285 425
732 2290 493
743 2295 560
754 2300 628
765 2305 694
775 2307 776
781 2304 899
787 2303 1010
796 2302 1112
806 2301 1209
816 2301 1304
827 2301 1396
838 2300 1488
849 2300 1577
861 2300 1666
874 2299 1754
886 2299 1841
900 2298 1928
912 2298 2014
926 2297 2100
940 2296 2185
954 2295 2270
968 2294 2355
982 2293 2439
996 2292 2523
1011 2291 2607
1025 2290 2691
1040 2289 2774
1055 2288 2857
1070 2287 2941
1085 2285 3024
736 2388 366
746 2393 434
755 2399 502
766 2404 569
777 2409 636
788 2413 703
800 2418 769
806 2416 886
812 2413 1005
820 2412 1111
829 2412 1210
838 2411 1306
849 2411 1400
860 2410 1492
871 2410 1582
883 2410 1671
895 2409 1760
907 2409 1848
920 2408 1935
933 2408 2021
946 2407 2107
960 2407 2193
974 2406 2278
987 2405 2363
1001 2404 2447
1016 2403 2532
1029 2402 2616
1044 2401 2699
1059 2400 2783
1074 2399 2866
1089 2398 2950
1104 2397 3033
760 2496 375
769 2502 443
779 2507 511
789 2513 578
800 2517 645
811 2522 712
823 2527 777
831 2528 870
836 2524 997
843 2523 1107
852 2522 1209
861 2521 1307
872 2521 1402
882 2521 1495
893 2520 1586
905 2520 1676
916 2520 1765
929 2519 1853
941 2519 1941
954 2518 2028
967 2518 2114
980 2517 2200
994 2516 2286
1007 2516 2371
1021 2515 2455
1035 2514 2540
1049 2513 2624
1063 2512 2708
1078 2511 2792
1092 2510 2875
1107 2509 2958
1122 2508 3042
784 2606 384
793 2611 452
803 2617 519
813 2622 587
823 2627 654
834 2632 720
846 2636 786
857 2641 852
862 2637 983
868 2634 1102
876 2633 1207
884 2633 1307
895 2632 1403
905 2632 1498
915 2631 1590
927 2631 1680
938 2631 1770
950 2630 1859
962 2630 1947
975 2629 2034
988 2629 2121
1001 2628 2207
1014 2628 2293
1027 2627 2378
1041 2626 2463
1055 2625 2548
1068 2625 2632
1083 2624 2716
1097 2623 2800
1111 2622 2884
1126 2621 2967
1141 2620 3050
807 2715 393
816 2721 461
826 2726 528
836 2732 595
847 2737 663
857 2742 729
869 2746 795
881 2751 861
888 2750 964
893 2746 1093
900 2745 1203
908 2744 1305
917 2743 1404
927 2743 1500
938 2743 1592
949 2742 1684
960 2742 1774
972 2742 1864
984 2741 1952
996 2741 2040
1008 2740 2127
1021 2740 2213
1034 2739 2300
1047 2739 2385
1061 2738 2471
1074 2737 2555
1088 2736 2640
1102 2735 2724
1116 2735 2808
1131 2733 2892
1145 2733 2975
1159 2732 3059
831 2825 402
840 2830 469
850 2836 537
860 2842 604
870 2847 671
881 2852 738
892 2856 804
904 2860 869
915 2864 943
918 2859 1080
924 2857 1197
932 2856 1303
941 2855 1403
951 2854 1501
961 2854 1595
971 2854 1687
982 2853 1778
993 2853 1868
1006 2852 1957
1017 2852 2045
1030 2851 2133
1042 2851 2220
1055 2850 2306
1068 2850 2392
1081 2849 2478
1095 2849 2563
1108 2848 2647
1122 2847 2732
1136 2846 2816
1150 2845 2900
1164 2844 2984
1179 2843 3067
855 2934 410
864 2940 478
873 2946 545
883 2951 613
894 2957 680
904 2961 747
915 2966 812
927 2970 878
938 2975 944
944 2972 1060
949 2969 1188
956 2967 1299
965 2966 1402
974 2966 1501
984 2965 1596
994 2965 1689
1005 2965 1782
1016 2964 1872
1027 2964 1962
1039 2963 2050
1051 2963 2138
1063 2962 2226
1076 2962 2313
1089 2961 2399
1102 2961 2484
1115 2960 2570
1128 2960 2655
1142 2959 2739
1156 2958 2824
1170 2957 2908
1184 2956 2992
1198 2955 3075
879 3044 419
888 3050 487
897 3055 554
907 3061 622
917 3066 689
928 3071 755
939 3076 821
950 3081 887
962 3085 952
971 3087 1035
975 3082 1175
981 3079 1292
988 3078 1398
997 3077 1500
1007 3077 1597
1016 3076 1691
1027 3076 1784
1038 3076 1876
1049 3075 1966
1061 3075 2055
1072 3075 2143
1085 3074 2231
1097 3073 2318
1110 3073 2405
1123 3072 2491
1136 3072 2576
1149 3071 2662
1162 3071 2747
1176 3070 2831
1189 3069 2916
1203 3068 3000
1217 3068 3083
903 3154 428
912 3160 495
921 3166 563
931 3171 630
