static/luts/s4_lut.3DL
#Created by: Adobe Photoshop Export Color Lookup Plugin
#Description: Globe_Lut_Test_2.psd
0 33 66 99 132 165 198 231 264 297 330 363 396 429 462 495 528 561 594 627 660 693 726 759 792 825 858 891 924 957 990 1023
0 0 341
0 0 556
0 1 756
1 1 944
1 2 1117
1 2 1283
1 3 1441
1 3 1591
1 4 1730
0 5 1863
0 5 1994
0 5 2125
0 6 2249
0 8 2366
0 9 2480
0 11 2594
0 11 2722
0 13 2835
0 15 2956
0 17 3075
0 18 3141
0 20 3201
0 22 3266
0 25 3325
0 25 3404
0 28 3469
0 32 3533
0 34 3605
0 37 3674
0 38 3738
0 38 3738
0 38 3738
6 87 362
6 89 571
7 88 779
7 88 961
6 90 1130
7 90 1298
7 91 1455
7 91 1603
7 91 1743
6 93 1875
7 93 2007
7 94 2136
6 96 2263
6 97 2387
5 98 2510
5 99 2637
3 101 2761
3 103 2893
3 104 3025
3 104 3120
1 107 3189
1 109 3261
0 110 3336
0 114 3407
0 117 3477
0 121 3548
0 123 3625
0 125 3708
0 131 3776
0 133 3835
0 133 3835
0 133 3835
9 208 370
9 211 581
10 212 783
10 212 966
10 214 1137
10 214 1303
10 217 1458
10 218 1606
10 218 1745
10 219 1879
10 221 2010
10 222 2139
10 224 2266
9 226 2391
9 227 2516
9 228 2641
9 231 2768
9 233 2900
8 235 3033
8 236 3126
7 239 3196
6 242 3269
7 243 3346
6 246 3424
5 247 3505
4 250 3587
4 253 3672
3 256 3757
3 257 3843
2 259 3913
2 259 3913
2 259 3913
11 367 379
12 369 590
12 371 788
13 371 969
13 372 1141
13 372 1306
13 374 1462
13 375 1608
13 375 1747
13 377 1880
13 377 2011
13 379 2140
13 381 2269
13 382 2393
13 383 2518
13 384 2643
12 386 2771
12 389 2903
12 390 3037
12 392 3132
11 393 3202
12 394 3276
11 398 3352
11 399 3431
10 400 3512
10 402 3595
9 404 3680
9 407 3766
8 409 3852
8 409 3921
8 409 3921
8 409 3921
15 530 396
15 531 602
15 533 794
15 534 973
15 534 1144
16 534 1308
15 535 1463
16 536 1610
16 537 1747
16 537 1881
16 538 2012
16 539 2141
16 540 2269
16 541 2393
16 542 2519
16 543 2645
16 543 2773
16 544 2906
16 546 3040
15 547 3136
15 548 3207
15 548 3281
15 549 3358
14 551 3437
14 552 3518
14 552 3602
14 553 3687
13 554 3773
13 555 3859
13 556 3928
13 556 3928
13 556 3928
16 686 411
16 686 615
16 688 801
17 688 978
17 689 1148
17 689 1311
17 691 1465
17 691 1612
18 691 1749
18 692 1882
18 692 2013
18 693 2142
18 694 2270
18 695 2394
18 696 2520
18 697 2646
18 698 2775
18 698 2908
18 699 3042
17 700 3140
17 701 3212
17 702 3285
17 703 3363
17 703 3442
17 705 3524
16 706 3607
16 706 3692
16 707 3778
16 708 3865
16 709 3934
16 709 3934
16 709 3934
18 843 424
18 844 625
19 845 809
19 846 984
19 846 1153
20 847 1315
20 847 1469
20 848 1614
20 849 1751
20 849 1884
20 850 2015
20 851 2144
20 851 2271
20 852 2396
20 852 2522
20 853 2648
20 854 2777
21 854 2910
20 855 3044
20 856 3144
20 857 3216
20 857 3290
20 858 3367
20 859 3447
20 860 3529
20 860 3613
19 860 3698
19 861 3784
19 862 3870
19 862 3939
19 862 3939
19 862 3939
20 993 436
20 994 636
21 995 816
21 996 992
22 997 1159
22 997 1320
22 998 1473
22 998 1617
22 999 1753
22 999 1886
23 1000 2017
23 1000 2146
23 1001 2273
23 1001 2397
23 1002 2523
23 1003 2650
23 1003 2779
23 1004 2912
23 1005 3046
23 1005 3148
23 1006 3220
23 1006 3294
23 1007 3371
23 1007 3452
23 1008 3534
22 1008 3617
22 1009 3702
22 1009 3788
22 1010 3875
22 1010 3944
22 1010 3944
22 1010 3944
22 1137 454
22 1138 649
23 1139 827
23 1140 999
24 1141 1165
24 1141 1325
24 1142 1477
24 1142 1620
25 1143 1756
25 1143 1888
25 1144 2019
25 1144 2147
25 1145 2275
25 1145 2400
25 1146 2524
25 1146 2652
25 1147 2781
25 1148 2914
25 1148 3049
25 1148 3152
25 1149 3224
25 1149 3298
25 1150 3376
25 1150 3456
25 1151 3538
25 1151 3622
25 1151 3707
25 1152 3793
25 1152 3880
25 1152 3948
25 1152 3948
25 1152 3948
24 1275 477
24 1277 665
25 1278 838
26 1279 1007
26 1280 1171
26 1280 1330
27 1281 1481
27 1282 1623
27 1282 1759
27 1282 1891
27 1283 2021
27 1283 2150
27 1284 2276
27 1285 2401
28 1285 2527
28 1285 2654
28 1286 2784
28 1286 2917
28 1287 3052
28 1287 3156
28 1287 3228
28 1288 3302
28 1288 3380
28 1288 3460
28 1288 3543
28 1289 3626
28 1289 3712
27 1290 3798
27 1290 3885
27 1290 3953
27 1290 3953
27 1290 3953
24 1408 498
25 1409 685
26 1411 849
26 1412 1016
27 1413 1179
27 1413 1335
27 1414 1486
27 1414 1627
28 1414 1762
28 1415 1894
28 1415 2024
28 1415 2152
28 1416 2279
28 1416 2403
28 1417 2529
29 1417 2656
29 1418 2786
29 1418 2920
29 1418 3054
29 1418 3160
29 1418 3232
29 1419 3306
29 1419 3384
29 1419 3465
29 1420 3547
29 1420 3631
29 1420 3716
28 1420 3802
28 1420 3889
28 1420 3957
28 1420 3957
28 1420 3957
26 1535 519
27 1536 700
28 1538 862
28 1540 1025
29 1540 1186
29 1541 1342
30 1541 1492
30 1542 1631
30 1542 1766
30 1543 1897
30 1543 2026
30 1543 2155
30 1544 2281
30 1544 2406
31 1544 2531
31 1545 2659
31 1545 2789
31 1545 2923
31 1545 3057
31 1546 3164
31 1546 3236
31 1546 3311
31 1547 3388
31 1546 3469
31 1547 3551
31 1547 3635
31 1547 3720
31 1547 3807
31 1547 3893
31 1547 3961
31 1547 3961
31 1547 3961
27 1660 538
28 1662 718
29 1664 874
30 1666 1036
31 1666 1195
31 1667 1348
32 1668 1497
32 1668 1636
32 1669 1770
32 1669 1900
32 1669 2030
33 1670 2158
33 1670 2284
33 1671 2408
33 1671 2534
33 1671 2661
33 1672 2791
33 1672 2925
33 1672 3060
33 1672 3168
33 1673 3240
33 1673 3315
33 1673 3393
33 1673 3473
33 1673 3556
33 1673 3639
33 1674 3725
33 1674 3811
33 1674 3898
33 1674 3965
33 1674 3965
33 1674 3965
29 1785 559
30 1787 735
31 1790 889
32 1792 1047
33 1793 1204
33 1793 1356
34 1794 1503
34 1795 1640
34 1795 1773
34 1796 1904
35 1796 2033
35 1797 2161
35 1797 2286
35 1797 2411
35 1798 2537
35 1798 2664
35 1798 2794
35 1798 2928
35 1798 3063
35 1799 3171
35 1799 3244
35 1799 3319
36 1800 3397
35 1799 3477
35 1800 3560
36 1800 3644
36 1800 3729
35 1800 3815
35 1800 3902
35 1800 3969
35 1800 3969
35 1800 3969
31 1911 584
32 1913 754
33 1916 903
34 1918 1058
35 1920 1213
35 1920 1363
36 1921 1509
36 1922 1644
36 1922 1777
37 1923 1908
37 1923 2036
37 1924 2163
37 1924 2289
37 1924 2414
37 1925 2539
37 1925 2666
37 1926 2797
38 1926 2931
37 1926 3066
37 1926 3175
38 1927 3248
38 1927 3323
38 1927 3401
37 1927 3482
38 1927 3564
38 1927 3648
38 1928 3733
37 1927 3820
37 1928 3906
38 1927 3973
38 1927 3973
38 1927 3973
31 2037 613
32 2040 773
34 2044 917
35 2046 1069
35 2047 1221
36 2048 1371
36 2049 1514
36 2050 1650
36 2050 1782
37 2050 1911
37 2051 2040
37 2052 2167
37 2052 2292
37 2053 2416
37 2053 2542
37 2053 2669
37 2053 2800
38 2054 2934
37 2054 3069
38 2054 3179
38 2055 3252
38 2055 3327
38 2055 3405
38 2055 3486
38 2055 3568
38 2055 3652
38 2055 3737
37 2056 3824
38 2056 3910
38 2056 3977
38 2056 3977
38 2056 3977
31 2163 638
33 2167 793
35 2171 934
36 2174 1081
37 2175 1231
37 2177 1378
38 2178 1520
38 2178 1655
38 2179 1786
38 2179 1915
39 2180 2043
39 2180 2170
39 2181 2295
39 2182 2419
39 2182 2544
39 2182 2672
39 2183 2803
40 2183 2937
39 2183 3072
39 2184 3183
40 2184 3256
40 2184 3331
40 2184 3409
40 2184 3490
40 2184 3573
40 2185 3657
40 2184 3742
40 2185 3828
40 2185 3914
40 2185 3981
40 2185 3981
40 2185 3981
33 2293 664
34 2298 815
36 2303 950
38 2306 1094
39 2307 1242
39 2309 1386
39 2310 1527
40 2311 1660
40 2312 1791
40 2312 1919
41 2313 2047
41 2314 2173
41 2314 2297
41 2315 2422
41 2315 2547
41 2316 2675
41 2316 2805
42 2316 2940
41 2317 3074
42 2317 3187
42 2318 3260
42 2318 3336
42 2318 3414
42 2318 3495
42 2318 3577
42 2318 3661
42 2318 3746
42 2318 3832
42 2319 3918
42 2319 3985
42 2319 3985
42 2319 3985
34 2427 691
36 2432 835
38 2438 965
39 2441 1107
40 2443 1252
41 2445 1395
41 2446 1533
42 2447 1665
42 2448 1795
42 2449 1923
43 2450 2050
43 2450 2176
43 2451 2300
43 2452 2424
43 2452 2550
43 2453 2677
44 2453 2808
44 2453 2942
43 2454 3078
43 2454 3191
44 2455 3264
44 2455 3340
44 2455 3418
44 2455 3499
44 2456 3582
44 2456 3665
44 2456 3751
43 2456 3836
44 2456 3922
44 2456 3989
44 2456 3989
44 2456 3989
35 2565 717
37 2571 855
40 2577 981
41 2581 1120
42 2584 1261
43 2586 1402
43 2587 1539
43 2588 1670
44 2590 1799
44 2591 1927
45 2591 2053
45 2592 2179
45 2593 2303
45 2593 2427
45 2594 2552
45 2595 2680
46 2595 2811
45 2596 2945
45 2596 3081
46 2596 3196
46 2597 3268
46 2597 3344
46 2598 3423
46 2598 3504
46 2598 3586
46 2598 3670
46 2598 3755
46 2598 3841
46 2598 3926
47 2598 3991
47 2598 3991
47 2598 3991
34 2708 744
37 2715 874
39 2722 997
40 2726 1132
41 2729 1272
42 2731 1411
42 2733 1546
43 2734 1675
43 2736 1803
44 2736 1931
44 2737 2057
44 2738 2182
44 2739 2305
44 2740 2429
44 2740 2555
45 2741 2682
45 2741 2813
45 2742 2948
45 2742 3083
45 2743 3200
45 2743 3273
45 2743 3349
45 2744 3427
45 2744 3508
45 2744 3590
45 2744 3674
45 2744 3759
45 2745 3845
46 2745 3930
51 2742 3991
51 2742 3991
51 2742 3991
35 2855 770
38 2864 895
40 2871 1014
42 2876 1145
43 2879 1282
44 2882 1420
44 2884 1552
45 2885 1681
45 2887 1808
45 2888 1935
46 2889 2060
46 2890 2185
46 2891 2308
46 2891 2432
46 2892 2557
46 2893 2685
47 2893 2816
46 2894 2950
46 2894 3086
47 2895 3204
47 2895 3277
47 2895 3353
47 2896 3432
48 2896 3512
48 2896 3595
48 2897 3679
49 2897 3764
49 2897 3849
50 2897 3934
62 2890 3991
62 2890 3991
62 2890 3991
36 3009 797
39 3019 916
42 3027 1029
43 3033 1157
45 3037 1292
46 3039 1427
46 3042 1557
46 3043 1685
47 3044 1812
47 3046 1938
47 3047 2063
48 3048 2188
47 3049 2310
48 3050 2434
48 3050 2559
49 3051 2687
49 3051 2818
50 3052 2953
50 3053 3089
51 3053 3208
51 3054 3282
52 3054 3358
53 3054 3436
53 3055 3517
54 3055 3599
55 3055 3683
56 3055 3768
56 3056 3854
57 3056 3938
74 3045 3991
74 3045 3991
74 3045 3991
37 3170 822
40 3180 935
43 3189 1045
45 3195 1170
46 3199 1302
47 3203 1435
47 3205 1563
48 3207 1690
49 3208 1816
50 3210 1941
50 3211 2066
51 3212 2190
51 3213 2312
52 3214 2436
53 3214 2561
54 3215 2689
55 3216 2820
55 3216 2955
56 3217 3091
57 3218 3213
58 3218 3286
59 3218 3362
59 3218 3441
60 3219 3522
61 3219 3604
62 3219 3688
62 3220 3773
63 3220 3858
64 3220 3942
87 3204 3991
87 3204 3991
87 3204 3991
37 3336 846
40 3346 954
42 3356 1061
44 3362 1182
45 3367 1312
46 3370 1443
47 3373 1569
48 3375 1695
49 3376 1820
50 3378 1944
52 3379 2068
53 3380 2192
53 3381 2314
55 3382 2438
56 3383 2563
57 3383 2691
58 3384 2822
58 3384 2957
59 3385 3093
60 3385 3217
61 3386 3290
62 3386 3366
62 3387 3445
63 3387 3526
63 3387 3608
64 3387 3692
65 3387 3777
65 3387 3862
66 3388 3946
98 3364 3991
98 3364 3991
98 3364 3991
37 3503 869
40 3510 974
43 3515 1077
46 3519 1195
48 3523 1322
50 3525 1450
52 3527 1575
53 3528 1700
55 3530 1824
57 3531 1948
58 3532 2071
59 3533 2195
60 3534 2317
61 3535 2440
62 3536 2565
63 3536 2693
64 3537 2824
64 3538 2958
65 3539 3095
66 3539 3221
67 3540 3295
68 3541 3371
68 3541 3450
69 3542 3531
70 3543 3613
71 3543 3697
71 3544 3781
71 3545 3867
72 3545 3950
108 3527 3991
108 3527 3991
108 3527 3991
40 3598 892
44 3605 993
48 3611 1094
50 3615 1209
54 3619 1332
56 3621 1458
58 3623 1581
60 3625 1704
61 3626 1827
63 3627 1951
64 3628 2074
65 3629 2197
66 3630 2319
67 3631 2442
68 3632 2567
69 3633 2695
70 3634 2826
71 3634 2960
71 3635 3097
72 3635 3226
73 3636 3299
74 3637 3376
74 3637 3454
75 3638 3535
76 3639 3617
77 3639 3701
77 3640 3786
77 3641 3871
78 3641 3954
124 3619 3991
124 3619 3991
124 3619 3991
44 3694 915
48 3701 1011
52 3708 1109
56 3712 1221
60 3716 1343
62 3718 1465
64 3720 1587
66 3722 1709
67 3723 1831
69 3725 1954
70 3726 2077
71 3727 2199
72 3728 2320
73 3728 2443
75 3729 2568
76 3730 2696
77 3731 2828
77 3732 2962
78 3732 3099
79 3733 3230
80 3733 3304
81 3734 3380
81 3735 3459
81 3735 3540
82 3736 3622
83 3736 3706
83 3737 3790
84 3738 3875
84 3738 3958
141 3711 3991
141 3711 3991
141 3711 3991
45 3791 937
49 3799 1030
54 3805 1124
58 3810 1234
